;FLAVOR:Marlin
;TIME:385
;Filament used: 0.277952m
;Layer height: 0.2
;Generated with Cura_SteamEngine 3.1.0
M82 ; absolute extrusion mode
G21 ; set units to millimeters
G90 ; use absolute positioning
M82 ; absolute extrusion mode
M104 S210 ; set extruder temp
M140 S60 ; set bed temp
M190 S60 ; wait for bed temp
M109 S210 ; wait for extruder temp
G28 W ; home all without mesh bed level
G80 ; mesh bed leveling
G92 E0.0 ; reset extruder distance position
G1 Y-3.0 F1000.0 ; go outside print area
G1 X60.0 E9.0 F1000.0 ; intro line
G1 X100.0 E21.5 F1000.0 ; intro line
G92 E0.0 ; reset extruder distance position
;LAYER_COUNT:26
;LAYER:0
M107
G0 F3600 X115.08 Y89.039 Z0.15
;TYPE:SKIRT
G1 F1800 X115.485 Y88.602 E0.01486
G1 X115.602 Y88.485 E0.01899
G1 X116.045 Y88.085 E0.03388
G1 X116.08 Y88.039 E0.03532
G1 X116.485 Y87.602 E0.05018
G1 X116.602 Y87.485 E0.05431
G1 X117.045 Y87.085 E0.0692
G1 X117.08 Y87.039 E0.07064
G1 X117.485 Y86.602 E0.0855
G1 X117.602 Y86.485 E0.08963
G1 X118.188 Y85.955 E0.10934
G1 X118.824 Y85.488 E0.12902
G1 X119.504 Y85.087 E0.14872
G1 X120.222 Y84.757 E0.16843
G1 X120.969 Y84.502 E0.18812
G1 X121.738 Y84.323 E0.20781
G1 X122.522 Y84.223 E0.22753
G1 X123.117 Y84.2 E0.24238
G1 X126.883 Y84.2 E0.33633
G1 X127.672 Y84.24 E0.35603
G1 X128.452 Y84.359 E0.37572
G1 X129.217 Y84.557 E0.39543
G1 X129.957 Y84.831 E0.41511
G1 X130.666 Y85.179 E0.43481
G1 X131.337 Y85.597 E0.45453
G1 X131.961 Y86.08 E0.47422
G1 X132.398 Y86.485 E0.48908
G1 X132.515 Y86.602 E0.49321
G1 X132.915 Y87.045 E0.5081
G1 X132.961 Y87.08 E0.50954
G1 X133.398 Y87.485 E0.5244
G1 X133.515 Y87.602 E0.52853
G1 X133.915 Y88.045 E0.54342
G1 X133.961 Y88.08 E0.54486
G1 X134.398 Y88.485 E0.55972
G1 X134.515 Y88.602 E0.56385
G1 X135.045 Y89.188 E0.58356
G1 X135.512 Y89.824 E0.60324
G1 X135.913 Y90.504 E0.62293
G1 X136.243 Y91.222 E0.64265
G1 X136.498 Y91.969 E0.66234
G1 X136.677 Y92.738 E0.68203
G1 X136.777 Y93.522 E0.70175
G1 X136.8 Y94.117 E0.7166
G1 X136.8 Y97.883 E0.81054
G1 X136.76 Y98.672 E0.83025
G1 X136.641 Y99.452 E0.84993
G1 X136.443 Y100.217 E0.86964
G1 X136.169 Y100.957 E0.88933
G1 X135.821 Y101.666 E0.90903
G1 X135.403 Y102.337 E0.92875
G1 X134.92 Y102.961 E0.94843
G1 X134.8 Y103.09 E0.95283
G1 X134.8 Y106.917 E1.04829
G1 X135.045 Y107.188 E1.05741
G1 X135.512 Y107.824 E1.07709
G1 X135.913 Y108.504 E1.09678
G1 X136.243 Y109.222 E1.11649
G1 X136.498 Y109.969 E1.13618
G1 X136.677 Y110.738 E1.15588
G1 X136.777 Y111.522 E1.17559
G1 X136.8 Y112.117 E1.19045
G1 X136.8 Y115.883 E1.28439
G1 X136.76 Y116.672 E1.3041
G1 X136.641 Y117.452 E1.32378
G1 X136.443 Y118.217 E1.34349
G1 X136.169 Y118.957 E1.36318
G1 X135.821 Y119.666 E1.38288
G1 X135.403 Y120.337 E1.4026
G1 X134.92 Y120.961 E1.42228
G1 X134.515 Y121.398 E1.43715
G1 X134.398 Y121.515 E1.44127
G1 X133.955 Y121.915 E1.45616
G1 X133.92 Y121.961 E1.4576
G1 X133.515 Y122.398 E1.47247
G1 X133.398 Y122.515 E1.47659
G1 X132.955 Y122.915 E1.49148
G1 X132.92 Y122.961 E1.49292
G1 X132.515 Y123.398 E1.50779
G1 X132.398 Y123.515 E1.51191
G1 X131.812 Y124.045 E1.53162
G1 X131.176 Y124.512 E1.55131
G1 X130.496 Y124.913 E1.571
G1 X129.778 Y125.243 E1.59071
G1 X129.031 Y125.498 E1.6104
G1 X128.262 Y125.677 E1.6301
G1 X127.478 Y125.777 E1.64981
G1 X126.883 Y125.8 E1.66467
G1 X123.117 Y125.8 E1.75861
G1 X122.328 Y125.76 E1.77832
G1 X121.548 Y125.641 E1.798
G1 X120.783 Y125.443 E1.81771
G1 X120.043 Y125.169 E1.83739
G1 X119.334 Y124.821 E1.8571
G1 X118.663 Y124.403 E1.87682
G1 X118.039 Y123.92 E1.8965
G1 X117.602 Y123.515 E1.91136
G1 X117.485 Y123.398 E1.91549
G1 X117.085 Y122.955 E1.93038
G1 X117.039 Y122.92 E1.93182
G1 X116.602 Y122.515 E1.94668
G1 X116.485 Y122.398 E1.95081
G1 X116.085 Y121.955 E1.9657
G1 X116.039 Y121.92 E1.96714
G1 X115.602 Y121.515 E1.982
G1 X115.485 Y121.398 E1.98613
G1 X114.955 Y120.812 E2.00584
G1 X114.488 Y120.176 E2.02552
G1 X114.087 Y119.496 E2.04522
G1 X113.757 Y118.778 E2.06493
G1 X113.502 Y118.031 E2.08462
G1 X113.323 Y117.262 E2.10431
G1 X113.223 Y116.478 E2.12403
G1 X113.2 Y115.883 E2.13888
G1 X113.2 Y112.117 E2.23283
G1 X113.24 Y111.328 E2.25253
G1 X113.359 Y110.548 E2.27221
G1 X113.557 Y109.783 E2.29193
G1 X113.831 Y109.043 E2.31161
G1 X114.179 Y108.334 E2.33131
G1 X114.597 Y107.663 E2.35103
G1 X115.08 Y107.039 E2.37072
G1 X115.2 Y106.91 E2.37511
G1 X115.2 Y103.083 E2.47058
G1 X114.955 Y102.812 E2.47969
G1 X114.488 Y102.176 E2.49937
G1 X114.087 Y101.496 E2.51906
G1 X113.757 Y100.778 E2.53878
G1 X113.502 Y100.031 E2.55847
G1 X113.323 Y99.262 E2.57816
G1 X113.223 Y98.478 E2.59788
G1 X113.2 Y97.883 E2.61273
G1 X113.2 Y94.117 E2.70667
G1 X113.24 Y93.328 E2.72638
G1 X113.359 Y92.548 E2.74606
G1 X113.557 Y91.783 E2.76578
G1 X113.831 Y91.043 E2.78546
G1 X114.179 Y90.334 E2.80516
G1 X114.597 Y89.663 E2.82488
G1 X115.08 Y89.039 E2.84457
G0 F3600 X115.475 Y89.194
G1 F1800 X115.767 Y88.884 E2.85519
G1 X115.884 Y88.767 E2.85932
G1 X116.355 Y88.344 E2.87511
G1 X116.475 Y88.194 E2.8799
G1 X116.767 Y87.884 E2.89052
G1 X116.884 Y87.767 E2.89465
G1 X117.355 Y87.344 E2.91044
G1 X117.475 Y87.194 E2.91523
G1 X117.767 Y86.884 E2.92586
G1 X117.884 Y86.767 E2.92999
G1 X118.456 Y86.253 E2.94917
G1 X119.078 Y85.8 E2.96836
G1 X119.743 Y85.414 E2.98754
G1 X120.445 Y85.099 E3.00674
G1 X121.176 Y84.859 E3.02593
G1 X121.927 Y84.696 E3.0451
G1 X122.692 Y84.612 E3.0643
G1 X123.117 Y84.6 E3.0749
G1 X126.883 Y84.6 E3.16885
G1 X127.651 Y84.64 E3.18803
G1 X128.411 Y84.759 E3.20722
G1 X129.154 Y84.957 E3.2264
G1 X129.873 Y85.231 E3.24559
G1 X130.559 Y85.578 E3.26477
G1 X131.206 Y85.994 E3.28396
G1 X131.806 Y86.475 E3.30314
G1 X132.116 Y86.767 E3.31376
G1 X132.233 Y86.884 E3.31789
G1 X132.656 Y87.355 E3.33368
G1 X132.806 Y87.475 E3.33848
G1 X133.116 Y87.767 E3.3491
G1 X133.233 Y87.884 E3.35323
G1 X133.656 Y88.355 E3.36902
G1 X133.806 Y88.475 E3.37381
G1 X134.116 Y88.767 E3.38443
G1 X134.233 Y88.884 E3.38856
G1 X134.747 Y89.456 E3.40774
G1 X135.2 Y90.078 E3.42694
G1 X135.586 Y90.743 E3.44612
G1 X135.901 Y91.445 E3.46531
G1 X136.141 Y92.176 E3.48451
G1 X136.304 Y92.927 E3.50368
G1 X136.388 Y93.692 E3.52287
G1 X136.4 Y94.117 E3.53348
G1 X136.4 Y97.883 E3.62742
G1 X136.36 Y98.651 E3.64661
G1 X136.241 Y99.411 E3.6658
G1 X136.043 Y100.154 E3.68498
G1 X135.769 Y100.873 E3.70417
G1 X135.422 Y101.559 E3.72335
G1 X135.006 Y102.206 E3.74254
G1 X134.525 Y102.806 E3.76172
G1 X134.4 Y102.939 E3.76627
G1 X134.4 Y107.07 E3.86932
G1 X134.747 Y107.456 E3.88227
G1 X135.2 Y108.078 E3.90146
G1 X135.586 Y108.743 E3.92064
G1 X135.901 Y109.445 E3.93984
G1 X136.141 Y110.176 E3.95903
G1 X136.304 Y110.927 E3.9782
G1 X136.388 Y111.692 E3.9974
G1 X136.4 Y112.117 E4.008
G1 X136.4 Y115.883 E4.10194
G1 X136.36 Y116.651 E4.12113
G1 X136.241 Y117.411 E4.14032
G1 X136.043 Y118.154 E4.1595
G1 X135.769 Y118.873 E4.17869
G1 X135.422 Y119.559 E4.19787
G1 X135.006 Y120.206 E4.21706
G1 X134.525 Y120.806 E4.23624
G1 X134.233 Y121.116 E4.24686
G1 X134.116 Y121.233 E4.25099
G1 X133.645 Y121.656 E4.26678
G1 X133.525 Y121.806 E4.27157
G1 X133.233 Y122.116 E4.2822
G1 X133.116 Y122.233 E4.28633
G1 X132.645 Y122.656 E4.30212
G1 X132.525 Y122.806 E4.30691
G1 X132.233 Y123.116 E4.31753
G1 X132.116 Y123.233 E4.32166
G1 X131.544 Y123.747 E4.34084
G1 X130.922 Y124.2 E4.36004
G1 X130.257 Y124.586 E4.37922
G1 X129.555 Y124.901 E4.39841
G1 X128.824 Y125.141 E4.4176
G1 X128.073 Y125.304 E4.43677
G1 X127.308 Y125.388 E4.45597
G1 X126.883 Y125.4 E4.46658
G1 X123.117 Y125.4 E4.56052
G1 X122.349 Y125.36 E4.5797
G1 X121.589 Y125.241 E4.59889
G1 X120.846 Y125.043 E4.61808
G1 X120.127 Y124.769 E4.63727
G1 X119.441 Y124.422 E4.65645
G1 X118.794 Y124.006 E4.67563
G1 X118.194 Y123.525 E4.69482
G1 X117.884 Y123.233 E4.70544
G1 X117.767 Y123.116 E4.70957
G1 X117.344 Y122.645 E4.72536
G1 X117.194 Y122.525 E4.73015
G1 X116.884 Y122.233 E4.74077
G1 X116.767 Y122.116 E4.7449
G1 X116.344 Y121.645 E4.76069
G1 X116.194 Y121.525 E4.76549
G1 X115.884 Y121.233 E4.77611
G1 X115.767 Y121.116 E4.78024
G1 X115.253 Y120.544 E4.79942
G1 X114.8 Y119.922 E4.81861
G1 X114.414 Y119.257 E4.83779
G1 X114.099 Y118.555 E4.85699
G1 X113.859 Y117.824 E4.87618
G1 X113.696 Y117.073 E4.89535
G1 X113.612 Y116.308 E4.91455
G1 X113.6 Y115.883 E4.92515
G1 X113.6 Y112.117 E5.0191
G1 X113.64 Y111.349 E5.03828
G1 X113.759 Y110.589 E5.05747
G1 X113.957 Y109.846 E5.07665
G1 X114.231 Y109.127 E5.09585
G1 X114.578 Y108.441 E5.11502
G1 X114.994 Y107.794 E5.13421
G1 X115.475 Y107.194 E5.15339
G1 X115.6 Y107.061 E5.15795
G1 X115.6 Y102.93 E5.26099
G1 X115.253 Y102.544 E5.27394
G1 X114.8 Y101.922 E5.29314
G1 X114.414 Y101.257 E5.31232
G1 X114.099 Y100.555 E5.33151
G1 X113.859 Y99.824 E5.3507
G1 X113.696 Y99.073 E5.36987
G1 X113.612 Y98.308 E5.38907
G1 X113.6 Y97.883 E5.39968
G1 X113.6 Y94.117 E5.49362
G1 X113.64 Y93.349 E5.5128
G1 X113.759 Y92.589 E5.53199
G1 X113.957 Y91.846 E5.55117
G1 X114.231 Y91.127 E5.57037
G1 X114.578 Y90.441 E5.58954
G1 X114.994 Y89.794 E5.60873
G1 X115.475 Y89.194 E5.62791
G0 F3600 X115.392 Y89.928
G1 F1800 X116.05 Y89.167 E5.65301
G1 X116.167 Y89.05 E5.65714
G1 X116.701 Y88.571 E5.67503
G1 X117.05 Y88.167 E5.68835
G1 X117.167 Y88.05 E5.69248
G1 X117.701 Y87.571 E5.71037
G1 X118.05 Y87.167 E5.72369
G1 X118.167 Y87.05 E5.72782
G1 X118.724 Y86.55 E5.74649
G1 X119.33 Y86.113 E5.76513
G1 X119.98 Y85.742 E5.78379
G1 X120.666 Y85.443 E5.80246
G1 X121.38 Y85.219 E5.82113
G1 X122.113 Y85.072 E5.83978
G1 X123.117 Y85 E5.86489
G1 X126.883 Y85 E5.95883
G1 X127.63 Y85.04 E5.97749
G1 X128.368 Y85.159 E5.99614
G1 X129.09 Y85.357 E6.01481
G1 X129.786 Y85.63 E6.03346
G1 X130.449 Y85.977 E6.05213
G1 X131.072 Y86.392 E6.0708
G1 X131.833 Y87.05 E6.0959
G1 X131.95 Y87.167 E6.10003
G1 X132.429 Y87.701 E6.11792
G1 X132.833 Y88.05 E6.13124
G1 X132.95 Y88.167 E6.13537
G1 X133.429 Y88.701 E6.15326
G1 X133.833 Y89.05 E6.16658
G1 X133.95 Y89.167 E6.1707
G1 X134.45 Y89.724 E6.18938
G1 X134.887 Y90.33 E6.20801
G1 X135.258 Y90.98 E6.22668
G1 X135.557 Y91.666 E6.24535
G1 X135.781 Y92.38 E6.26402
G1 X135.928 Y93.113 E6.28267
G1 X136 Y94.117 E6.30777
G1 X136 Y97.883 E6.40172
G1 X135.96 Y98.63 E6.42038
G1 X135.841 Y99.368 E6.43903
G1 X135.643 Y100.09 E6.4577
G1 X135.37 Y100.786 E6.47635
G1 X135.023 Y101.449 E6.49502
G1 X134.608 Y102.072 E6.51369
G1 X134 Y102.775 E6.53688
G1 X134 Y107.223 E6.64783
G1 X134.45 Y107.724 E6.66463
G1 X134.887 Y108.33 E6.68327
G1 X135.258 Y108.98 E6.70194
G1 X135.557 Y109.666 E6.7206
G1 X135.781 Y110.38 E6.73927
G1 X135.928 Y111.113 E6.75792
G1 X136 Y112.117 E6.78303
G1 X136 Y115.883 E6.87697
G1 X135.96 Y116.63 E6.89563
G1 X135.841 Y117.368 E6.91428
G1 X135.643 Y118.09 E6.93296
G1 X135.37 Y118.786 E6.95161
G1 X135.023 Y119.449 E6.97027
G1 X134.608 Y120.072 E6.98895
G1 X133.95 Y120.833 E7.01404
G1 X133.833 Y120.95 E7.01817
G1 X133.299 Y121.429 E7.03606
G1 X132.95 Y121.833 E7.04938
G1 X132.833 Y121.95 E7.05351
G1 X132.299 Y122.429 E7.0714
G1 X131.95 Y122.833 E7.08472
G1 X131.833 Y122.95 E7.08885
G1 X131.276 Y123.45 E7.10752
G1 X130.67 Y123.887 E7.12616
G1 X130.02 Y124.258 E7.14482
G1 X129.334 Y124.557 E7.16349
G1 X128.62 Y124.781 E7.18216
G1 X127.887 Y124.928 E7.20081
G1 X126.883 Y125 E7.22592
G1 X123.117 Y125 E7.31986
G1 X122.37 Y124.96 E7.33852
G1 X121.632 Y124.841 E7.35717
G1 X120.91 Y124.643 E7.37584
G1 X120.214 Y124.37 E7.39449
G1 X119.551 Y124.023 E7.41316
G1 X118.928 Y123.608 E7.43183
G1 X118.167 Y122.95 E7.45693
G1 X118.05 Y122.833 E7.46106
G1 X117.571 Y122.299 E7.47895
G1 X117.167 Y121.95 E7.49227
G1 X117.05 Y121.833 E7.4964
G1 X116.571 Y121.299 E7.51429
G1 X116.167 Y120.95 E7.52761
G1 X116.05 Y120.833 E7.53173
G1 X115.55 Y120.276 E7.55041
G1 X115.113 Y119.67 E7.56904
G1 X114.742 Y119.02 E7.58771
G1 X114.443 Y118.334 E7.60638
G1 X114.219 Y117.62 E7.62505
G1 X114.072 Y116.887 E7.6437
G1 X114 Y115.883 E7.6688
G1 X114 Y112.117 E7.76275
G1 X114.04 Y111.37 E7.78141
G1 X114.159 Y110.632 E7.80006
G1 X114.357 Y109.91 E7.81873
G1 X114.63 Y109.214 E7.83738
G1 X114.977 Y108.551 E7.85605
G1 X115.392 Y107.928 E7.87472
G1 X116 Y107.225 E7.89791
G1 X116 Y102.777 E8.00886
G1 X115.55 Y102.276 E8.02566
G1 X115.113 Y101.67 E8.0443
G1 X114.742 Y101.02 E8.06297
G1 X114.443 Y100.334 E8.08163
G1 X114.219 Y99.62 E8.1003
G1 X114.072 Y98.887 E8.11895
G1 X114 Y97.883 E8.14406
G1 X114 Y94.117 E8.238
G1 X114.04 Y93.37 E8.25666
G1 X114.159 Y92.632 E8.27531
G1 X114.357 Y91.91 E8.29399
G1 X114.63 Y91.214 E8.31264
G1 X114.977 Y90.551 E8.3313
G1 X115.392 Y89.928 E8.34998
G0 F3600 X115.789 Y90.067
G1 F1800 X116.333 Y89.45 E8.37049
G1 X116.45 Y89.333 E8.37462
G1 X116.945 Y88.89 E8.39119
G1 X117.333 Y88.45 E8.40583
G1 X117.45 Y88.333 E8.40995
G1 X117.945 Y87.89 E8.42652
G1 X118.333 Y87.45 E8.44116
G1 X118.45 Y87.333 E8.44529
G1 X118.991 Y86.849 E8.46339
G1 X119.582 Y86.426 E8.48152
G1 X120.216 Y86.072 E8.49964
G1 X120.885 Y85.789 E8.51776
G1 X121.581 Y85.581 E8.53588
G1 X122.296 Y85.451 E8.55401
G1 X123.117 Y85.4 E8.57452
G1 X126.883 Y85.4 E8.66847
G1 X127.608 Y85.44 E8.68658
G1 X128.325 Y85.559 E8.70471
G1 X129.024 Y85.757 E8.72283
G1 X129.697 Y86.03 E8.74095
G1 X130.336 Y86.375 E8.75907
G1 X130.933 Y86.789 E8.77719
G1 X131.55 Y87.333 E8.79771
G1 X131.667 Y87.45 E8.80183
G1 X132.11 Y87.945 E8.81841
G1 X132.55 Y88.333 E8.83304
G1 X132.667 Y88.45 E8.83717
G1 X133.11 Y88.945 E8.85374
G1 X133.55 Y89.333 E8.86837
G1 X133.667 Y89.45 E8.8725
G1 X134.151 Y89.991 E8.89061
G1 X134.574 Y90.582 E8.90874
G1 X134.928 Y91.216 E8.92685
G1 X135.211 Y91.885 E8.94497
G1 X135.419 Y92.581 E8.96309
G1 X135.549 Y93.296 E8.98122
G1 X135.6 Y94.117 E9.00174
G1 X135.6 Y97.883 E9.09568
G1 X135.56 Y98.608 E9.11379
G1 X135.441 Y99.325 E9.13192
G1 X135.243 Y100.024 E9.15005
G1 X134.97 Y100.697 E9.16816
G1 X134.625 Y101.336 E9.18628
G1 X134.211 Y101.933 E9.2044
G1 X133.667 Y102.55 E9.22492
G1 X133.6 Y102.617 E9.22728
G1 X133.6 Y107.383 E9.34617
G1 X133.667 Y107.45 E9.34853
G1 X134.151 Y107.991 E9.36664
G1 X134.574 Y108.582 E9.38477
G1 X134.928 Y109.216 E9.40289
G1 X135.211 Y109.885 E9.42101
G1 X135.419 Y110.581 E9.43913
G1 X135.549 Y111.296 E9.45725
G1 X135.6 Y112.117 E9.47777
G1 X135.6 Y115.883 E9.57172
G1 X135.56 Y116.608 E9.58983
G1 X135.441 Y117.325 E9.60796
G1 X135.243 Y118.024 E9.62608
G1 X134.97 Y118.697 E9.6442
G1 X134.625 Y119.336 E9.66231
G1 X134.211 Y119.933 E9.68044
G1 X133.667 Y120.55 E9.70096
G1 X133.55 Y120.667 E9.70508
G1 X133.055 Y121.11 E9.72165
G1 X132.667 Y121.55 E9.73629
G1 X132.55 Y121.667 E9.74042
G1 X132.055 Y122.11 E9.75699
G1 X131.667 Y122.55 E9.77162
G1 X131.55 Y122.667 E9.77575
G1 X131.009 Y123.151 E9.79386
G1 X130.418 Y123.574 E9.81198
G1 X129.784 Y123.928 E9.8301
G1 X129.115 Y124.211 E9.84822
G1 X128.419 Y124.419 E9.86634
G1 X127.704 Y124.549 E9.88447
G1 X126.883 Y124.6 E9.90499
G1 X123.117 Y124.6 E9.99893
G1 X122.392 Y124.56 E10.01704
G1 X121.675 Y124.441 E10.03517
G1 X120.976 Y124.243 E10.0533
G1 X120.303 Y123.97 E10.07141
G1 X119.664 Y123.625 E10.08953
G1 X119.067 Y123.211 E10.10765
G1 X118.45 Y122.667 E10.12817
G1 X118.333 Y122.55 E10.1323
G1 X117.89 Y122.055 E10.14887
G1 X117.45 Y121.667 E10.1635
G1 X117.333 Y121.55 E10.16763
G1 X116.89 Y121.055 E10.1842
G1 X116.45 Y120.667 E10.19883
G1 X116.333 Y120.55 E10.20296
G1 X115.849 Y120.009 E10.22107
G1 X115.426 Y119.418 E10.2392
G1 X115.072 Y118.784 E10.25731
G1 X114.789 Y118.115 E10.27543
G1 X114.581 Y117.419 E10.29355
G1 X114.451 Y116.704 E10.31168
G1 X114.4 Y115.883 E10.3322
G1 X114.4 Y112.117 E10.42614
G1 X114.44 Y111.392 E10.44425
G1 X114.559 Y110.675 E10.46238
G1 X114.757 Y109.976 E10.48051
G1 X115.03 Y109.303 E10.49862
G1 X115.375 Y108.664 E10.51674
G1 X115.789 Y108.067 E10.53486
G1 X116.333 Y107.45 E10.55538
G1 X116.4 Y107.383 E10.55774
G1 X116.4 Y102.617 E10.67663
G1 X116.333 Y102.55 E10.679
G1 X115.849 Y102.009 E10.6971
G1 X115.426 Y101.418 E10.71523
G1 X115.072 Y100.784 E10.73335
G1 X114.789 Y100.115 E10.75147
G1 X114.581 Y99.419 E10.76959
G1 X114.451 Y98.704 E10.78772
G1 X114.4 Y97.883 E10.80824
G1 X114.4 Y94.117 E10.90218
G1 X114.44 Y93.392 E10.92029
G1 X114.559 Y92.675 E10.93842
G1 X114.757 Y91.976 E10.95654
G1 X115.03 Y91.303 E10.97466
G1 X115.375 Y90.664 E10.99278
G1 X115.789 Y90.067 E11.0109
G0 F3600 X116.185 Y90.211
