;FLAVOR:Marlin
;TIME:16092
;Filament used: 16.3731m
;Layer height: 0.2
;Generated with Cura_SteamEngine 3.1.0
M82 ; absolute extrusion mode
G21 ; set units to millimeters
G90 ; use absolute positioning
M82 ; absolute extrusion mode
M104 S210 ; set extruder temp
M140 S60 ; set bed temp
M190 S60 ; wait for bed temp
M109 S210 ; wait for extruder temp
G28 W ; home all without mesh bed level
G80 ; mesh bed leveling
G92 E0.0 ; reset extruder distance position
G1 Y-3.0 F1000.0 ; go outside print area
G1 X60.0 E9.0 F1000.0 ; intro line
G1 X100.0 E21.5 F1000.0 ; intro line
G92 E0.0 ; reset extruder distance position
;LAYER_COUNT:266
;LAYER:0
M107
G0 F3600 X80.597 Y61.663 Z0.15
;TYPE:SKIRT
G1 F1800 X81.08 Y61.039 E0.01968
G1 X81.485 Y60.602 E0.03455
G1 X81.602 Y60.485 E0.03867
G1 X82.188 Y59.955 E0.05838
G1 X82.824 Y59.488 E0.07807
G1 X83.504 Y59.087 E0.09776
G1 X84.222 Y58.757 E0.11747
G1 X84.969 Y58.502 E0.13716
G1 X85.738 Y58.323 E0.15686
G1 X86.522 Y58.223 E0.17657
G1 X87.117 Y58.2 E0.19142
G1 X145.883 Y58.2 E1.65735
G1 X146.672 Y58.24 E1.67706
G1 X147.452 Y58.359 E1.69674
G1 X148.217 Y58.557 E1.71645
G1 X148.957 Y58.831 E1.73613
G1 X149.666 Y59.179 E1.75584
G1 X149.769 Y59.243 E1.75886
G1 X149.84 Y59.194 E1.76101
G1 X150.53 Y58.808 E1.78073
G1 X151.254 Y58.494 E1.80042
G1 X152.007 Y58.255 E1.82013
G1 X152.78 Y58.094 E1.83982
G1 X153.565 Y58.011 E1.85952
G1 X153.987 Y58 E1.87005
G1 X162.966 Y58 E2.09403
G1 X163.755 Y58.04 E2.11373
G1 X164.535 Y58.159 E2.13342
G1 X165.3 Y58.357 E2.15313
G1 X166.04 Y58.631 E2.17281
G1 X166.749 Y58.979 E2.19251
G1 X167.42 Y59.397 E2.21223
G1 X168.044 Y59.88 E2.23192
G1 X168.481 Y60.285 E2.24678
G1 X168.715 Y60.519 E2.25504
G1 X169.245 Y61.105 E2.27475
G1 X169.712 Y61.741 E2.29443
G1 X170.113 Y62.421 E2.31412
G1 X170.443 Y63.139 E2.33383
G1 X170.698 Y63.886 E2.35352
G1 X170.877 Y64.655 E2.37322
G1 X170.977 Y65.439 E2.39293
G1 X171 Y66.034 E2.40779
G1 X171 Y76.966 E2.68049
G1 X170.96 Y77.755 E2.70019
G1 X170.841 Y78.535 E2.71988
G1 X170.643 Y79.3 E2.73959
G1 X170.369 Y80.04 E2.75927
G1 X170.021 Y80.749 E2.77897
G1 X170 Y80.783 E2.77997
G1 X170 Y85.966 E2.90926
G1 X169.96 Y86.755 E2.92897
G1 X169.841 Y87.535 E2.94865
G1 X169.643 Y88.3 E2.96836
G1 X169.369 Y89.04 E2.98805
G1 X169.021 Y89.749 E3.00775
G1 X169 Y89.783 E3.00874
G1 X169 Y89.966 E3.01331
G1 X168.96 Y90.755 E3.03302
G1 X168.841 Y91.535 E3.0527
G1 X168.643 Y92.3 E3.07241
G1 X168.369 Y93.04 E3.0921
G1 X168.021 Y93.749 E3.1118
G1 X167.941 Y93.877 E3.11556
G1 X167.841 Y94.535 E3.13216
G1 X167.643 Y95.3 E3.15188
G1 X167.369 Y96.04 E3.17156
G1 X167.021 Y96.749 E3.19126
G1 X166.941 Y96.877 E3.19503
G1 X166.841 Y97.535 E3.21163
G1 X166.643 Y98.3 E3.23134
G1 X166.369 Y99.04 E3.25103
G1 X166.021 Y99.749 E3.27073
G1 X165.603 Y100.42 E3.29045
G1 X165.595 Y100.431 E3.29079
G1 X165.369 Y101.04 E3.30699
G1 X165.021 Y101.749 E3.32669
G1 X164.603 Y102.42 E3.34641
G1 X164.12 Y103.044 E3.3661
G1 X163.715 Y103.481 E3.38096
G1 X159.481 Y107.715 E3.53033
G1 X158.895 Y108.245 E3.55003
G1 X158.259 Y108.712 E3.56972
G1 X157.579 Y109.113 E3.58941
G1 X156.861 Y109.443 E3.60912
G1 X156.421 Y109.593 E3.62072
G1 X156.259 Y109.712 E3.62573
G1 X155.579 Y110.113 E3.64542
G1 X154.861 Y110.443 E3.66514
G1 X154.114 Y110.698 E3.68483
G1 X153.345 Y110.877 E3.70452
G1 X152.872 Y110.937 E3.71642
G1 X152.564 Y111.118 E3.72533
G1 X152 Y111.376 E3.7408
G1 X152 Y135.966 E4.3542
G1 X151.96 Y136.755 E4.3739
G1 X151.841 Y137.535 E4.39359
G1 X151.643 Y138.3 E4.4133
G1 X151.369 Y139.04 E4.43298
G1 X151.021 Y139.749 E4.45268
G1 X150.603 Y140.42 E4.47241
G1 X150.12 Y141.044 E4.49209
G1 X149.715 Y141.481 E4.50695
G1 X149.481 Y141.715 E4.51521
G1 X148.895 Y142.245 E4.53492
G1 X148.259 Y142.712 E4.5546
G1 X147.579 Y143.113 E4.57429
G1 X146.861 Y143.443 E4.594
G1 X146.693 Y143.5 E4.59843
G1 X146.475 Y143.718 E4.60612
G1 X145.888 Y144.247 E4.62583
G1 X145.252 Y144.714 E4.64551
G1 X144.571 Y145.115 E4.66523
G1 X143.853 Y145.444 E4.68493
G1 X143.695 Y145.498 E4.68909
G1 X143.475 Y145.718 E4.69685
G1 X142.888 Y146.247 E4.71657
G1 X142.252 Y146.714 E4.73625
G1 X141.571 Y147.115 E4.75596
G1 X140.853 Y147.444 E4.77566
G1 X140.416 Y147.594 E4.78719
G1 X140.245 Y147.719 E4.79247
G1 X139.564 Y148.118 E4.81216
G1 X138.846 Y148.447 E4.83186
G1 X138.099 Y148.702 E4.85155
G1 X137.329 Y148.879 E4.87126
G1 X136.874 Y148.937 E4.8827
G1 X136.564 Y149.118 E4.89166
G1 X135.846 Y149.447 E4.91136
G1 X135.099 Y149.702 E4.93105
G1 X134.329 Y149.879 E4.95076
G1 X133.879 Y149.936 E4.96207
G1 X133.579 Y150.113 E4.97076
G1 X132.861 Y150.443 E4.99047
G1 X132.114 Y150.698 E5.01016
G1 X131.345 Y150.877 E5.02986
G1 X130.561 Y150.977 E5.04957
G1 X129.966 Y151 E5.06443
G1 X128.959 Y151 E5.08955
G1 X128.59 Y151.216 E5.10021
G1 X127.871 Y151.544 E5.11993
G1 X127.123 Y151.797 E5.13962
G1 X126.354 Y151.974 E5.15931
G1 X125.57 Y152.072 E5.17902
G1 X124.996 Y152.093 E5.19335
G1 X107.911 Y152.093 E5.61953
G1 X107.122 Y152.053 E5.63924
G1 X106.342 Y151.934 E5.65892
G1 X105.577 Y151.736 E5.67863
G1 X104.837 Y151.462 E5.69832
G1 X104.128 Y151.114 E5.71802
G1 X103.937 Y150.995 E5.72363
G1 X103.242 Y150.96 E5.74099
G1 X102.462 Y150.841 E5.76067
G1 X101.697 Y150.643 E5.78039
G1 X100.957 Y150.369 E5.80007
G1 X100.248 Y150.021 E5.81977
G1 X99.577 Y149.603 E5.83949
G1 X99.566 Y149.595 E5.83983
G1 X98.957 Y149.369 E5.85604
G1 X98.248 Y149.021 E5.87574
G1 X97.577 Y148.603 E5.89546
G1 X97.55 Y148.582 E5.89631
G1 X96.975 Y148.369 E5.91161
G1 X96.266 Y148.021 E5.93131
G1 X95.595 Y147.603 E5.95103
G1 X94.971 Y147.12 E5.97071
G1 X94.531 Y146.712 E5.98568
G1 X86.282 Y138.454 E6.27685
G1 X85.752 Y137.868 E6.29656
G1 X85.285 Y137.231 E6.31626
G1 X84.885 Y136.551 E6.33594
G1 X84.556 Y135.833 E6.35564
G1 X84.422 Y135.443 E6.36593
G1 X84.29 Y135.263 E6.37149
G1 X83.889 Y134.583 E6.39119
G1 X83.559 Y133.865 E6.4109
G1 X83.303 Y133.118 E6.4306
G1 X83.124 Y132.349 E6.45029
G1 X83.023 Y131.566 E6.46999
G1 X83 Y130.966 E6.48496
G1 X83 Y130.771 E6.48983
G1 X82.887 Y130.579 E6.49539
G1 X82.557 Y129.861 E6.5151
G1 X82.302 Y129.114 E6.53479
G1 X82.123 Y128.345 E6.55448
G1 X82.023 Y127.561 E6.5742
G1 X82 Y126.964 E6.5891
G1 X82 Y125.771 E6.61886
G1 X81.887 Y125.579 E6.62442
G1 X81.557 Y124.861 E6.64413
G1 X81.302 Y124.114 E6.66382
G1 X81.123 Y123.345 E6.68352
G1 X81.023 Y122.561 E6.70323
G1 X81 Y121.965 E6.71811
G1 X81.001 Y118.772 E6.79776
G1 X80.887 Y118.579 E6.80335
G1 X80.557 Y117.861 E6.82306
G1 X80.302 Y117.114 E6.84275
G1 X80.123 Y116.345 E6.86245
G1 X80.023 Y115.561 E6.88216
G1 X80 Y114.966 E6.89702
G1 X80 Y111.771 E6.97672
G1 X79.887 Y111.579 E6.98227
G1 X79.557 Y110.861 E7.00199
G1 X79.302 Y110.114 E7.02168
G1 X79.123 Y109.345 E7.04137
G1 X79.023 Y108.561 E7.06109
G1 X79 Y107.965 E7.07596
G1 X79.002 Y78.983 E7.79892
G1 X79.042 Y78.195 E7.81861
G1 X79.162 Y77.414 E7.83832
G1 X79.359 Y76.65 E7.858
G1 X79.634 Y75.909 E7.87771
G1 X79.981 Y75.2 E7.8974
G1 X80.249 Y74.771 E7.91002
G1 X80.087 Y74.496 E7.91798
G1 X79.757 Y73.778 E7.9377
G1 X79.502 Y73.031 E7.95739
G1 X79.323 Y72.262 E7.97708
G1 X79.223 Y71.478 E7.9968
G1 X79.2 Y70.883 E8.01165
G1 X79.2 Y66.117 E8.13054
G1 X79.24 Y65.328 E8.15025
G1 X79.359 Y64.548 E8.16993
G1 X79.557 Y63.783 E8.18964
G1 X79.831 Y63.043 E8.20932
G1 X80.179 Y62.334 E8.22903
G1 X80.597 Y61.663 E8.24875
G0 F3600 X80.994 Y61.794
G1 F1800 X81.475 Y61.194 E8.26793
G1 X81.767 Y60.884 E8.27855
G1 X81.884 Y60.767 E8.28268
G1 X82.456 Y60.253 E8.30186
G1 X83.078 Y59.8 E8.32106
G1 X83.743 Y59.414 E8.34024
G1 X84.445 Y59.099 E8.35943
G1 X85.176 Y58.859 E8.37862
G1 X85.927 Y58.696 E8.39779
G1 X86.692 Y58.612 E8.41699
G1 X87.117 Y58.6 E8.4276
G1 X145.883 Y58.6 E9.89352
G1 X146.651 Y58.64 E9.9127
G1 X147.411 Y58.759 E9.93189
G1 X148.154 Y58.957 E9.95108
G1 X148.873 Y59.231 E9.97027
G1 X149.559 Y59.578 E9.98945
G1 X149.782 Y59.721 E9.99605
G1 X150.224 Y59.428 E10.00928
G1 X150.906 Y59.072 E10.02847
G1 X151.621 Y58.789 E10.04766
G1 X152.361 Y58.581 E10.06683
G1 X153.119 Y58.451 E10.08601
G1 X153.987 Y58.4 E10.1077
G1 X162.966 Y58.4 E10.33169
G1 X163.734 Y58.44 E10.35087
G1 X164.494 Y58.559 E10.37006
G1 X165.237 Y58.757 E10.38924
G1 X165.956 Y59.031 E10.40843
G1 X166.642 Y59.378 E10.42761
G1 X167.289 Y59.794 E10.4468
G1 X167.889 Y60.275 E10.46598
G1 X168.199 Y60.567 E10.4766
G1 X168.433 Y60.801 E10.48486
G1 X168.947 Y61.373 E10.50404
G1 X169.4 Y61.995 E10.52324
G1 X169.786 Y62.66 E10.54242
G1 X170.101 Y63.362 E10.56161
G1 X170.341 Y64.093 E10.5808
G1 X170.504 Y64.844 E10.59997
G1 X170.588 Y65.609 E10.61917
G1 X170.6 Y66.034 E10.62978
G1 X170.6 Y76.966 E10.90248
G1 X170.56 Y77.734 E10.92166
G1 X170.441 Y78.494 E10.94085
G1 X170.243 Y79.237 E10.96003
G1 X169.969 Y79.956 E10.97923
G1 X169.622 Y80.642 E10.9984
G1 X169.6 Y80.676 E10.99941
G1 X169.6 Y85.966 E11.13137
G1 X169.56 Y86.734 E11.15056
G1 X169.441 Y87.494 E11.16975
G1 X169.243 Y88.237 E11.18893
G1 X168.969 Y88.956 E11.20812
G1 X168.622 Y89.642 E11.2273
G1 X168.6 Y89.676 E11.22831
G1 X168.6 Y89.966 E11.23554
G1 X168.56 Y90.734 E11.25473
G1 X168.441 Y91.494 E11.27391
G1 X168.243 Y92.237 E11.2931
G1 X167.969 Y92.956 E11.31229
G1 X167.622 Y93.642 E11.33147
G1 X167.559 Y93.74 E11.33437
G1 X167.441 Y94.494 E11.35341
G1 X167.243 Y95.237 E11.37259
G1 X166.969 Y95.956 E11.39178
G1 X166.622 Y96.642 E11.41096
G1 X166.559 Y96.74 E11.41387
G1 X166.441 Y97.494 E11.43291
G1 X166.243 Y98.237 E11.45209
G1 X165.969 Y98.956 E11.47128
G1 X165.622 Y99.642 E11.49046
G1 X165.246 Y100.228 E11.50783
G1 X165.243 Y100.237 E11.50806
G1 X164.969 Y100.956 E11.52726
G1 X164.622 Y101.642 E11.54643
G1 X164.206 Y102.289 E11.56562
G1 X163.725 Y102.889 E11.5848
G1 X163.433 Y103.199 E11.59543
G1 X159.199 Y107.433 E11.74479
G1 X158.627 Y107.947 E11.76398
G1 X158.005 Y108.4 E11.78317
G1 X157.34 Y108.786 E11.80235
G1 X156.638 Y109.101 E11.82154
G1 X156.233 Y109.234 E11.83218
G1 X156.005 Y109.4 E11.83921
G1 X155.34 Y109.786 E11.85839
G1 X154.638 Y110.101 E11.87759
G1 X153.907 Y110.341 E11.89678
G1 X153.156 Y110.504 E11.91595
G1 X152.744 Y110.549 E11.92629
G1 X152.326 Y110.791 E11.93834
G1 X151.624 Y111.105 E11.95752
G1 X151.6 Y111.113 E11.95815
G1 X151.6 Y135.966 E12.57811
G1 X151.56 Y136.734 E12.5973
G1 X151.441 Y137.494 E12.61648
G1 X151.243 Y138.237 E12.63567
G1 X150.969 Y138.956 E12.65486
G1 X150.622 Y139.642 E12.67404
G1 X150.206 Y140.289 E12.69322
G1 X149.725 Y140.889 E12.71241
G1 X149.433 Y141.199 E12.72303
G1 X149.199 Y141.433 E12.73129
G1 X148.627 Y141.947 E12.75047
G1 X148.005 Y142.4 E12.76966
G1 X147.34 Y142.786 E12.78884
G1 X146.638 Y143.101 E12.80804
G1 X146.472 Y143.156 E12.8124
G1 X146.192 Y143.435 E12.82226
G1 X145.62 Y143.95 E12.84146
G1 X144.998 Y144.402 E12.86064
G1 X144.333 Y144.788 E12.87982
G1 X143.631 Y145.102 E12.899
G1 X143.474 Y145.154 E12.90313
G1 X143.192 Y145.435 E12.91306
G1 X142.62 Y145.95 E12.93226
G1 X141.998 Y146.402 E12.95144
G1 X141.333 Y146.788 E12.97062
G1 X140.631 Y147.102 E12.9898
G1 X140.229 Y147.234 E13.00036
G1 X139.992 Y147.406 E13.00766
G1 X139.326 Y147.791 E13.02685
G1 X138.624 Y148.105 E13.04604
G1 X137.893 Y148.344 E13.06522
G1 X137.141 Y148.506 E13.08441
G1 X136.746 Y148.548 E13.09432
G1 X136.326 Y148.791 E13.10642
G1 X135.624 Y149.105 E13.12561
G1 X134.893 Y149.344 E13.14479
G1 X134.141 Y149.506 E13.16398
G1 X133.75 Y149.548 E13.17379
G1 X133.34 Y149.786 E13.18562
G1 X132.638 Y150.101 E13.20481
G1 X131.907 Y150.341 E13.224
G1 X131.156 Y150.504 E13.24317
G1 X130.391 Y150.588 E13.26237
G1 X129.966 Y150.6 E13.27298
G1 X128.852 Y150.6 E13.30076
G1 X128.352 Y150.888 E13.31516
G1 X127.649 Y151.201 E13.33435
G1 X126.918 Y151.439 E13.35353
G1 X126.166 Y151.6 E13.37271
G1 X125.401 Y151.682 E13.39191
G1 X124.996 Y151.693 E13.40201
G1 X107.911 Y151.693 E13.8282
G1 X107.143 Y151.653 E13.84738
G1 X106.383 Y151.534 E13.86657
G1 X105.64 Y151.336 E13.88575
G1 X104.921 Y151.062 E13.90495
G1 X104.235 Y150.715 E13.92413
G1 X104.056 Y150.6 E13.92943
G1 X104.031 Y150.6 E13.93006
G1 X103.263 Y150.56 E13.94924
G1 X102.503 Y150.441 E13.96843
G1 X101.76 Y150.243 E13.98761
G1 X101.041 Y149.969 E14.0068
G1 X100.355 Y149.622 E14.02598
G1 X99.769 Y149.246 E14.04335
G1 X99.76 Y149.243 E14.04359
G1 X99.041 Y148.969 E14.06278
G1 X98.355 Y148.622 E14.08196
G1 X97.747 Y148.231 E14.09999
G1 X97.059 Y147.969 E14.11835
G1 X96.373 Y147.622 E14.13753
G1 X95.726 Y147.206 E14.15672
G1 X95.126 Y146.725 E14.1759
G1 X94.814 Y146.43 E14.18661
G1 X86.565 Y138.172 E14.47778
G1 X86.05 Y137.6 E14.49698
G1 X85.598 Y136.978 E14.51616
G1 X85.212 Y136.312 E14.53536
G1 X84.898 Y135.61 E14.55454
G1 X84.781 Y135.255 E14.56387
G1 X84.602 Y135.009 E14.57145
G1 X84.216 Y134.344 E14.59064
G1 X83.901 Y133.642 E14.60983
G1 X83.66 Y132.912 E14.62901
G1 X83.497 Y132.16 E14.6482
G1 X83.412 Y131.396 E14.66738
G1 X83.4 Y130.966 E14.67811
G1 X83.4 Y130.66 E14.68574
G1 X83.214 Y130.34 E14.69497
G1 X82.899 Y129.638 E14.71417
G1 X82.659 Y128.907 E14.73336
G1 X82.496 Y128.156 E14.75253
G1 X82.412 Y127.391 E14.77173
G1 X82.4 Y126.964 E14.78238
G1 X82.4 Y125.661 E14.81488
G1 X82.214 Y125.34 E14.82414
G1 X81.899 Y124.638 E14.84333
G1 X81.659 Y123.907 E14.86253
G1 X81.496 Y123.156 E14.8817
G1 X81.412 Y122.391 E14.90089
G1 X81.4 Y121.965 E14.91152
G1 X81.401 Y118.661 E14.99394
G1 X81.214 Y118.34 E15.00321
G1 X80.899 Y117.638 E15.0224
G1 X80.659 Y116.907 E15.0416
G1 X80.496 Y116.156 E15.06077
G1 X80.412 Y115.391 E15.07996
G1 X80.4 Y114.966 E15.09057
G1 X80.4 Y111.66 E15.17304
G1 X80.214 Y111.34 E15.18227
G1 X79.899 Y110.638 E15.20146
G1 X79.659 Y109.907 E15.22066
G1 X79.496 Y109.156 E15.23983
G1 X79.412 Y108.391 E15.25902
G1 X79.4 Y107.965 E15.26966
G1 X79.402 Y78.983 E15.99261
G1 X79.442 Y78.215 E16.0118
G1 X79.562 Y77.456 E16.03097
G1 X79.759 Y76.712 E16.05017
G1 X80.033 Y75.994 E16.06934
G1 X80.38 Y75.307 E16.08854
G1 X80.719 Y74.782 E16.10412
G1 X80.414 Y74.257 E16.11927
G1 X80.099 Y73.555 E16.13846
G1 X79.859 Y72.824 E16.15766
G1 X79.696 Y72.073 E16.17683
G1 X79.612 Y71.308 E16.19602
G1 X79.6 Y70.883 E16.20663
G1 X79.6 Y66.117 E16.32552
G1 X79.64 Y65.349 E16.3447
G1 X79.759 Y64.589 E16.36389
G1 X79.957 Y63.846 E16.38307
G1 X80.231 Y63.127 E16.40227
G1 X80.578 Y62.441 E16.42144
G1 X80.994 Y61.794 E16.44063
G0 F3600 X81.392 Y61.928
G1 F1800 X82.05 Y61.167 E16.46573
G1 X82.167 Y61.05 E16.46985
G1 X82.724 Y60.55 E16.48852
G1 X83.33 Y60.113 E16.50716
G1 X83.98 Y59.742 E16.52583
G1 X84.666 Y59.443 E16.5445
G1 X85.38 Y59.219 E16.56317
G1 X86.113 Y59.072 E16.58181
G1 X87.117 Y59 E16.60692
G1 X145.883 Y59 E18.07285
G1 X146.63 Y59.04 E18.09151
G1 X147.368 Y59.159 E18.11016
G1 X148.09 Y59.357 E18.12883
G1 X148.786 Y59.63 E18.14748
G1 X149.449 Y59.977 E18.16615
G1 X149.793 Y60.206 E18.17646
G1 X149.971 Y60.067 E18.18209
G1 X150.605 Y59.671 E18.20074
G1 X151.279 Y59.345 E18.21941
G1 X151.983 Y59.093 E18.23807
G1 X152.71 Y58.917 E18.25672
G1 X153.452 Y58.82 E18.27539
G1 X153.987 Y58.8 E18.28875
G1 X162.966 Y58.8 E18.51273
G1 X163.713 Y58.84 E18.53139
G1 X164.451 Y58.959 E18.55004
G1 X165.173 Y59.157 E18.56871
G1 X165.869 Y59.43 E18.58736
G1 X166.532 Y59.777 E18.60603
G1 X167.155 Y60.192 E18.6247
G1 X167.916 Y60.85 E18.6498
G1 X168.15 Y61.084 E18.65805
G1 X168.65 Y61.641 E18.67672
G1 X169.087 Y62.247 E18.69536
G1 X169.458 Y62.897 E18.71403
G1 X169.757 Y63.583 E18.7327
G1 X169.981 Y64.297 E18.75136
G1 X170.128 Y65.03 E18.77001
G1 X170.2 Y66.034 E18.79512
G1 X170.2 Y76.966 E19.06782
G1 X170.16 Y77.713 E19.08648
G1 X170.041 Y78.451 E19.10513
G1 X169.843 Y79.173 E19.1238
G1 X169.57 Y79.869 E19.14245
G1 X169.223 Y80.532 E19.16112
G1 X169.2 Y80.567 E19.16217
G1 X169.2 Y85.966 E19.29684
G1 X169.16 Y86.713 E19.3155
G1 X169.041 Y87.451 E19.33415
G1 X168.843 Y88.173 E19.35283
G1 X168.57 Y88.869 E19.37148
G1 X168.223 Y89.532 E19.39014
G1 X168.2 Y89.567 E19.39119
G1 X168.2 Y89.966 E19.40114
G1 X168.16 Y90.713 E19.4198
G1 X168.041 Y91.451 E19.43845
G1 X167.843 Y92.173 E19.45712
G1 X167.57 Y92.869 E19.47577
G1 X167.223 Y93.532 E19.49444
G1 X167.165 Y93.619 E19.49705
G1 X167.16 Y93.713 E19.4994
G1 X167.041 Y94.451 E19.51805
G1 X166.843 Y95.173 E19.53672
G1 X166.57 Y95.869 E19.55537
G1 X166.223 Y96.532 E19.57404
G1 X166.165 Y96.619 E19.57665
