;FLAVOR:Marlin
;TIME:4643
;Filament used: 4.19743m
;Layer height: 0.2
;Generated with Cura_SteamEngine 3.1.0
M82 ; absolute extrusion mode
G21 ; set units to millimeters
G90 ; use absolute positioning
M82 ; absolute extrusion mode
M104 S210 ; set extruder temp
M140 S60 ; set bed temp
M190 S60 ; wait for bed temp
M109 S210 ; wait for extruder temp
G28 W ; home all without mesh bed level
G80 ; mesh bed leveling
G92 E0.0 ; reset extruder distance position
G1 Y-3.0 F1000.0 ; go outside print area
G1 X60.0 E9.0 F1000.0 ; intro line
G1 X100.0 E21.5 F1000.0 ; intro line
G92 E0.0 ; reset extruder distance position
;LAYER_COUNT:231
;LAYER:0
M107
G0 F3600 X108.897 Y75.08 Z0.15
;TYPE:SKIRT
G1 F1800 X109.38 Y74.456 E0.01968
G1 X109.785 Y74.019 E0.03455
G1 X113.019 Y70.785 E0.14863
G1 X113.605 Y70.255 E0.16834
G1 X114.241 Y69.788 E0.18803
G1 X114.921 Y69.387 E0.20772
G1 X115.639 Y69.057 E0.22743
G1 X116.079 Y68.907 E0.23903
G1 X116.241 Y68.788 E0.24404
G1 X116.921 Y68.387 E0.26373
G1 X117.639 Y68.057 E0.28345
G1 X118.386 Y67.802 E0.30314
G1 X119.155 Y67.623 E0.32283
G1 X119.939 Y67.523 E0.34255
G1 X120.534 Y67.5 E0.3574
G1 X129.466 Y67.5 E0.58021
G1 X130.255 Y67.54 E0.59992
G1 X131.035 Y67.659 E0.6196
G1 X131.8 Y67.857 E0.63931
G1 X132.54 Y68.131 E0.65899
G1 X133.249 Y68.479 E0.6787
G1 X133.92 Y68.897 E0.69842
G1 X133.931 Y68.905 E0.69876
G1 X134.54 Y69.131 E0.71496
G1 X135.249 Y69.479 E0.73466
G1 X135.92 Y69.897 E0.75438
G1 X136.544 Y70.38 E0.77407
G1 X136.981 Y70.785 E0.78893
G1 X140.215 Y74.019 E0.90302
G1 X140.745 Y74.605 E0.92273
G1 X141.212 Y75.241 E0.94241
G1 X141.613 Y75.921 E0.9621
G1 X141.943 Y76.639 E0.98181
G1 X142.093 Y77.079 E0.99341
G1 X142.212 Y77.241 E0.99842
G1 X142.613 Y77.921 E1.01812
G1 X142.943 Y78.639 E1.03783
G1 X143.198 Y79.386 E1.05752
G1 X143.377 Y80.155 E1.07721
G1 X143.477 Y80.939 E1.09693
G1 X143.5 Y81.534 E1.11178
G1 X143.5 Y102.466 E1.63393
G1 X143.46 Y103.255 E1.65364
G1 X143.341 Y104.035 E1.67332
G1 X143.143 Y104.8 E1.69303
G1 X142.869 Y105.54 E1.71272
G1 X142.521 Y106.249 E1.73242
G1 X142.5 Y106.283 E1.73342
G1 X142.5 Y107.466 E1.76293
G1 X142.46 Y108.255 E1.78263
G1 X142.341 Y109.035 E1.80232
G1 X142.143 Y109.8 E1.82203
G1 X141.869 Y110.54 E1.84171
G1 X141.521 Y111.249 E1.86141
G1 X141.5 Y111.283 E1.86241
G1 X141.5 Y111.775 E1.87468
G1 X141.46 Y112.564 E1.89439
G1 X141.341 Y113.344 E1.91407
G1 X141.143 Y114.109 E1.93378
G1 X140.869 Y114.849 E1.95347
G1 X140.521 Y115.558 E1.97317
G1 X140.103 Y116.229 E1.99289
G1 X139.62 Y116.853 E2.01257
G1 X139.077 Y117.426 E2.03227
G1 X138.478 Y117.941 E2.05197
G1 X137.83 Y118.392 E2.07167
G1 X137.3 Y118.687 E2.0868
G1 X137.3 Y134.383 E2.47834
G1 X137.26 Y135.172 E2.49804
G1 X137.141 Y135.952 E2.51772
G1 X136.943 Y136.717 E2.53744
G1 X136.669 Y137.457 E2.55712
G1 X136.321 Y138.166 E2.57682
G1 X135.903 Y138.837 E2.59654
G1 X135.42 Y139.461 E2.61623
G1 X135.015 Y139.898 E2.63109
G1 X134.898 Y140.015 E2.63522
G1 X134.312 Y140.545 E2.65493
G1 X133.676 Y141.012 E2.67461
G1 X132.996 Y141.413 E2.6943
G1 X132.278 Y141.743 E2.71401
G1 X131.531 Y141.998 E2.7337
G1 X130.762 Y142.177 E2.7534
G1 X129.978 Y142.277 E2.77311
G1 X129.383 Y142.3 E2.78797
G1 X126.617 Y142.3 E2.85697
G1 X125.828 Y142.26 E2.87667
G1 X125.048 Y142.141 E2.89635
G1 X124.283 Y141.943 E2.91607
G1 X123.543 Y141.669 E2.93575
G1 X122.834 Y141.321 E2.95545
G1 X122.163 Y140.903 E2.97517
G1 X121.539 Y140.42 E2.99486
G1 X121.102 Y140.015 E3.00972
G1 X120.985 Y139.898 E3.01385
G1 X120.455 Y139.312 E3.03356
G1 X119.988 Y138.676 E3.05324
G1 X119.587 Y137.996 E3.07293
G1 X119.257 Y137.278 E3.09264
G1 X119.002 Y136.531 E3.11233
G1 X118.823 Y135.762 E3.13203
G1 X118.723 Y134.978 E3.15174
G1 X118.7 Y134.383 E3.1666
G1 X118.7 Y124.657 E3.40921
G1 X118.304 Y124.657 E3.41909
G1 X117.518 Y124.577 E3.4388
G1 X116.745 Y124.417 E3.45849
G1 X115.991 Y124.181 E3.4782
G1 X115.266 Y123.869 E3.49789
G1 X114.575 Y123.486 E3.5176
G1 X113.927 Y123.035 E3.53729
G1 X113.189 Y122.384 E3.56184
G1 X111.787 Y120.983 E3.61128
G1 X111.257 Y120.398 E3.63097
G1 X110.789 Y119.761 E3.65069
G1 X110.388 Y119.081 E3.67038
G1 X110.058 Y118.364 E3.69007
G1 X109.802 Y117.617 E3.70977
G1 X109.623 Y116.847 E3.72949
G1 X109.563 Y116.378 E3.74128
G1 X109.387 Y116.079 E3.74994
G1 X109.057 Y115.361 E3.76965
G1 X108.802 Y114.614 E3.78934
G1 X108.623 Y113.845 E3.80904
G1 X108.523 Y113.061 E3.82875
G1 X108.5 Y112.466 E3.8436
G1 X108.5 Y111.271 E3.87341
G1 X108.387 Y111.079 E3.87897
G1 X108.057 Y110.361 E3.89868
G1 X107.802 Y109.614 E3.91837
G1 X107.623 Y108.845 E3.93807
G1 X107.523 Y108.061 E3.95778
G1 X107.5 Y107.466 E3.97264
G1 X107.5 Y106.271 E4.00245
G1 X107.387 Y106.079 E4.008
G1 X107.057 Y105.361 E4.02772
G1 X106.802 Y104.614 E4.0474
G1 X106.623 Y103.845 E4.0671
G1 X106.523 Y103.061 E4.08682
G1 X106.5 Y102.466 E4.10167
G1 X106.5 Y81.534 E4.62382
G1 X106.54 Y80.745 E4.64353
G1 X106.659 Y79.965 E4.66321
G1 X106.857 Y79.2 E4.68292
G1 X107.131 Y78.46 E4.70261
G1 X107.479 Y77.751 E4.72231
G1 X107.897 Y77.08 E4.74203
G1 X107.905 Y77.069 E4.74237
G1 X108.131 Y76.46 E4.75857
G1 X108.479 Y75.751 E4.77827
G1 X108.897 Y75.08 E4.79799
G0 F3600 X109.294 Y75.211
G1 F1800 X109.775 Y74.611 E4.81718
G1 X110.067 Y74.301 E4.8278
G1 X113.301 Y71.067 E4.94189
G1 X113.873 Y70.553 E4.96107
G1 X114.495 Y70.1 E4.98026
G1 X115.16 Y69.714 E4.99945
G1 X115.862 Y69.399 E5.01864
G1 X116.267 Y69.266 E5.02927
G1 X116.495 Y69.1 E5.03631
G1 X117.16 Y68.714 E5.05549
G1 X117.862 Y68.399 E5.07468
G1 X118.593 Y68.159 E5.09387
G1 X119.344 Y67.996 E5.11304
G1 X120.109 Y67.912 E5.13224
G1 X120.534 Y67.9 E5.14285
G1 X129.466 Y67.9 E5.36566
G1 X130.234 Y67.94 E5.38484
G1 X130.994 Y68.059 E5.40403
G1 X131.737 Y68.257 E5.42321
G1 X132.456 Y68.531 E5.44241
G1 X133.142 Y68.878 E5.46158
G1 X133.728 Y69.254 E5.47895
G1 X133.737 Y69.257 E5.47919
G1 X134.456 Y69.531 E5.49838
G1 X135.142 Y69.878 E5.51756
G1 X135.789 Y70.294 E5.53675
G1 X136.389 Y70.775 E5.55593
G1 X136.699 Y71.067 E5.56655
G1 X139.933 Y74.301 E5.68064
G1 X140.447 Y74.873 E5.69982
G1 X140.9 Y75.495 E5.71902
G1 X141.286 Y76.16 E5.7382
G1 X141.601 Y76.862 E5.75739
G1 X141.734 Y77.267 E5.76803
G1 X141.9 Y77.495 E5.77506
G1 X142.286 Y78.16 E5.79424
G1 X142.601 Y78.862 E5.81343
G1 X142.841 Y79.593 E5.83263
G1 X143.004 Y80.344 E5.8518
G1 X143.088 Y81.109 E5.87099
G1 X143.1 Y81.534 E5.8816
G1 X143.1 Y102.466 E6.40375
G1 X143.06 Y103.234 E6.42294
G1 X142.941 Y103.994 E6.44212
G1 X142.743 Y104.737 E6.46131
G1 X142.469 Y105.456 E6.4805
G1 X142.122 Y106.142 E6.49968
G1 X142.1 Y106.176 E6.50069
G1 X142.1 Y107.466 E6.53287
G1 X142.06 Y108.234 E6.55205
G1 X141.941 Y108.994 E6.57124
G1 X141.743 Y109.737 E6.59042
G1 X141.469 Y110.456 E6.60961
G1 X141.122 Y111.142 E6.62879
G1 X141.1 Y111.176 E6.6298
G1 X141.1 Y111.775 E6.64474
G1 X141.06 Y112.543 E6.66393
G1 X140.941 Y113.303 E6.68312
G1 X140.743 Y114.046 E6.7023
G1 X140.469 Y114.765 E6.72149
G1 X140.122 Y115.451 E6.74067
G1 X139.706 Y116.098 E6.75986
G1 X139.225 Y116.698 E6.77904
G1 X138.684 Y117.245 E6.79823
G1 X138.089 Y117.733 E6.81743
G1 X137.447 Y118.156 E6.8366
G1 X136.895 Y118.443 E6.85212
G1 X136.9 Y118.617 E6.85647
G1 X136.9 Y134.383 E7.24975
G1 X136.86 Y135.151 E7.26893
G1 X136.741 Y135.911 E7.28812
G1 X136.543 Y136.654 E7.3073
G1 X136.269 Y137.373 E7.3265
G1 X135.922 Y138.059 E7.34567
G1 X135.506 Y138.706 E7.36486
G1 X135.025 Y139.306 E7.38405
G1 X134.733 Y139.616 E7.39467
G1 X134.616 Y139.733 E7.3988
G1 X134.044 Y140.247 E7.41798
G1 X133.422 Y140.7 E7.43717
G1 X132.757 Y141.086 E7.45635
G1 X132.055 Y141.401 E7.47555
G1 X131.324 Y141.641 E7.49474
G1 X130.573 Y141.804 E7.51391
G1 X129.808 Y141.888 E7.53311
G1 X129.383 Y141.9 E7.54371
G1 X126.617 Y141.9 E7.61271
G1 X125.849 Y141.86 E7.6319
G1 X125.089 Y141.741 E7.65109
G1 X124.346 Y141.543 E7.67027
G1 X123.627 Y141.269 E7.68946
G1 X122.941 Y140.922 E7.70864
G1 X122.294 Y140.506 E7.72782
G1 X121.694 Y140.025 E7.74701
G1 X121.384 Y139.733 E7.75763
G1 X121.267 Y139.616 E7.76176
G1 X120.753 Y139.044 E7.78094
G1 X120.3 Y138.422 E7.80014
G1 X119.914 Y137.757 E7.81932
G1 X119.599 Y137.055 E7.83851
G1 X119.359 Y136.324 E7.8577
G1 X119.196 Y135.573 E7.87687
G1 X119.112 Y134.808 E7.89607
G1 X119.1 Y134.383 E7.90668
G1 X119.1 Y124.247 E8.15952
G1 X118.834 Y124.266 E8.16617
G1 X118.065 Y124.24 E8.18537
G1 X117.303 Y124.134 E8.20456
G1 X116.556 Y123.949 E8.22375
G1 X115.833 Y123.688 E8.24293
G1 X115.14 Y123.353 E8.26213
G1 X114.486 Y122.949 E8.28131
G1 X113.878 Y122.478 E8.30049
G1 X113.471 Y122.101 E8.31433
G1 X112.069 Y120.7 E8.36377
G1 X111.554 Y120.129 E8.38295
G1 X111.101 Y119.508 E8.40213
G1 X110.715 Y118.842 E8.42133
G1 X110.4 Y118.141 E8.4405
G1 X110.16 Y117.41 E8.45969
G1 X109.997 Y116.658 E8.47889
G1 X109.952 Y116.249 E8.48915
G1 X109.714 Y115.84 E8.50095
G1 X109.399 Y115.138 E8.52015
G1 X109.159 Y114.407 E8.53934
G1 X108.996 Y113.656 E8.55851
G1 X108.912 Y112.891 E8.57771
G1 X108.9 Y112.466 E8.58831
G1 X108.9 Y111.16 E8.62089
G1 X108.714 Y110.84 E8.63013
G1 X108.399 Y110.138 E8.64932
G1 X108.159 Y109.407 E8.66851
G1 X107.996 Y108.656 E8.68768
G1 X107.912 Y107.891 E8.70688
G1 X107.9 Y107.466 E8.71749
G1 X107.9 Y106.16 E8.75006
G1 X107.714 Y105.84 E8.7593
G1 X107.399 Y105.138 E8.77849
G1 X107.159 Y104.407 E8.79768
G1 X106.996 Y103.656 E8.81685
G1 X106.912 Y102.891 E8.83605
G1 X106.9 Y102.466 E8.84666
G1 X106.9 Y81.534 E9.36881
G1 X106.94 Y80.766 E9.38799
G1 X107.059 Y80.006 E9.40718
G1 X107.257 Y79.263 E9.42636
G1 X107.531 Y78.544 E9.44556
G1 X107.878 Y77.858 E9.46473
G1 X108.254 Y77.272 E9.4821
G1 X108.257 Y77.263 E9.48234
G1 X108.531 Y76.544 E9.50153
G1 X108.878 Y75.858 E9.52071
G1 X109.294 Y75.211 E9.5399
G0 F3600 X109.692 Y75.345
G1 F1800 X110.35 Y74.584 E9.56499
G1 X113.584 Y71.35 E9.67908
G1 X114.141 Y70.85 E9.69775
G1 X114.747 Y70.413 E9.71639
G1 X115.397 Y70.042 E9.73506
G1 X116.083 Y69.743 E9.75372
G1 X116.448 Y69.628 E9.76327
G1 X116.747 Y69.413 E9.77246
G1 X117.397 Y69.042 E9.79113
G1 X118.083 Y68.743 E9.80979
G1 X118.797 Y68.519 E9.82846
G1 X119.53 Y68.372 E9.84711
G1 X120.534 Y68.3 E9.87222
G1 X129.466 Y68.3 E10.09503
G1 X130.213 Y68.34 E10.11369
G1 X130.951 Y68.459 E10.13234
G1 X131.673 Y68.657 E10.15101
G1 X132.369 Y68.93 E10.16966
G1 X133.032 Y69.277 E10.18833
G1 X133.553 Y69.624 E10.20394
G1 X133.673 Y69.657 E10.20705
G1 X134.369 Y69.93 E10.2257
G1 X135.032 Y70.277 E10.24436
G1 X135.655 Y70.692 E10.26304
G1 X136.416 Y71.35 E10.28813
G1 X139.65 Y74.584 E10.40222
G1 X140.15 Y75.141 E10.42089
G1 X140.587 Y75.747 E10.43953
G1 X140.958 Y76.397 E10.4582
G1 X141.257 Y77.083 E10.47687
G1 X141.372 Y77.448 E10.48641
G1 X141.587 Y77.747 E10.4956
G1 X141.958 Y78.397 E10.51427
G1 X142.257 Y79.083 E10.53294
G1 X142.481 Y79.797 E10.5516
G1 X142.628 Y80.53 E10.57025
G1 X142.7 Y81.534 E10.59536
G1 X142.7 Y102.466 E11.11751
G1 X142.66 Y103.213 E11.13617
G1 X142.541 Y103.951 E11.15482
G1 X142.343 Y104.673 E11.17349
G1 X142.07 Y105.369 E11.19214
G1 X141.723 Y106.032 E11.21081
G1 X141.7 Y106.067 E11.21186
G1 X141.7 Y107.466 E11.24675
G1 X141.66 Y108.213 E11.26541
G1 X141.541 Y108.951 E11.28406
G1 X141.343 Y109.673 E11.30274
G1 X141.07 Y110.369 E11.32139
G1 X140.723 Y111.032 E11.34005
G1 X140.7 Y111.067 E11.3411
G1 X140.7 Y111.775 E11.35876
G1 X140.66 Y112.522 E11.37742
G1 X140.541 Y113.26 E11.39607
G1 X140.343 Y113.982 E11.41474
G1 X140.07 Y114.678 E11.43339
G1 X139.723 Y115.341 E11.45206
G1 X139.308 Y115.964 E11.47073
G1 X138.829 Y116.538 E11.48938
G1 X138.292 Y117.059 E11.50805
G1 X137.702 Y117.518 E11.52669
G1 X137.066 Y117.913 E11.54537
G1 X136.47 Y118.199 E11.56186
G1 X136.5 Y118.617 E11.57231
G1 X136.5 Y134.383 E11.9656
G1 X136.46 Y135.13 E11.98426
G1 X136.341 Y135.868 E12.0029
G1 X136.143 Y136.59 E12.02158
G1 X135.87 Y137.286 E12.04023
G1 X135.523 Y137.949 E12.0589
G1 X135.108 Y138.572 E12.07757
G1 X134.45 Y139.333 E12.10267
G1 X134.333 Y139.45 E12.10679
G1 X133.776 Y139.95 E12.12546
G1 X133.17 Y140.387 E12.1441
G1 X132.52 Y140.758 E12.16277
G1 X131.834 Y141.057 E12.18144
G1 X131.12 Y141.281 E12.2001
G1 X130.387 Y141.428 E12.21875
G1 X129.383 Y141.5 E12.24386
G1 X126.617 Y141.5 E12.31286
G1 X125.87 Y141.46 E12.33152
G1 X125.132 Y141.341 E12.35017
G1 X124.41 Y141.143 E12.36884
G1 X123.714 Y140.87 E12.38749
G1 X123.051 Y140.523 E12.40616
G1 X122.428 Y140.108 E12.42483
G1 X121.667 Y139.45 E12.44993
G1 X121.55 Y139.333 E12.45406
G1 X121.05 Y138.776 E12.47273
G1 X120.613 Y138.17 E12.49137
G1 X120.242 Y137.52 E12.51003
G1 X119.943 Y136.834 E12.5287
G1 X119.719 Y136.12 E12.54737
G1 X119.572 Y135.387 E12.56602
G1 X119.5 Y134.383 E12.59113
G1 X119.5 Y123.814 E12.85477
G1 X119.328 Y123.839 E12.85911
G1 X118.58 Y123.866 E12.87778
G1 X117.834 Y123.813 E12.89643
G1 X117.098 Y123.681 E12.91509
G1 X116.38 Y123.471 E12.93375
G1 X115.688 Y123.185 E12.95243
G1 X115.031 Y122.827 E12.97109
G1 X114.416 Y122.402 E12.98974
G1 X113.754 Y121.819 E13.01174
G1 X112.352 Y120.418 E13.06118
G1 X111.852 Y119.861 E13.07986
G1 X111.414 Y119.255 E13.09851
G1 X111.043 Y118.605 E13.11718
G1 X110.744 Y117.919 E13.13584
G1 X110.52 Y117.206 E13.15449
G1 X110.373 Y116.472 E13.17316
G1 X110.349 Y116.141 E13.18144
G1 X110.042 Y115.603 E13.19689
G1 X109.743 Y114.917 E13.21556
G1 X109.519 Y114.203 E13.23422
G1 X109.372 Y113.47 E13.25287
G1 X109.3 Y112.466 E13.27798
G1 X109.3 Y111.055 E13.31318
G1 X109.042 Y110.603 E13.32616
G1 X108.743 Y109.917 E13.34483
G1 X108.519 Y109.203 E13.3635
G1 X108.372 Y108.47 E13.38215
G1 X108.3 Y107.466 E13.40725
G1 X108.3 Y106.055 E13.44245
G1 X108.042 Y105.603 E13.45543
G1 X107.743 Y104.917 E13.4741
G1 X107.519 Y104.203 E13.49277
G1 X107.372 Y103.47 E13.51142
G1 X107.3 Y102.466 E13.53653
G1 X107.3 Y81.534 E14.05868
G1 X107.34 Y80.787 E14.07734
G1 X107.459 Y80.049 E14.09599
G1 X107.657 Y79.327 E14.11466
G1 X107.93 Y78.631 E14.13331
G1 X108.277 Y77.968 E14.15198
G1 X108.624 Y77.447 E14.16759
G1 X108.657 Y77.327 E14.1707
G1 X108.93 Y76.631 E14.18935
G1 X109.277 Y75.968 E14.20801
G1 X109.692 Y75.345 E14.22669
G0 F3600 X110.089 Y75.484
G1 F1800 X110.633 Y74.867 E14.24721
G1 X113.867 Y71.633 E14.36129
G1 X114.408 Y71.149 E14.3794
G1 X114.999 Y70.726 E14.39753
G1 X115.633 Y70.372 E14.41564
G1 X116.302 Y70.089 E14.43376
G1 X116.628 Y69.992 E14.44225
G1 X116.999 Y69.726 E14.45364
G1 X117.633 Y69.372 E14.47175
G1 X118.302 Y69.089 E14.48987
G1 X118.998 Y68.881 E14.50799
G1 X119.713 Y68.751 E14.52612
G1 X120.534 Y68.7 E14.54664
G1 X129.466 Y68.7 E14.76945
G1 X130.191 Y68.74 E14.78756
G1 X130.908 Y68.859 E14.80569
G1 X131.607 Y69.057 E14.82381
G1 X132.28 Y69.33 E14.84193
G1 X132.919 Y69.675 E14.86005
G1 X133.375 Y69.991 E14.87388
G1 X133.607 Y70.057 E14.8799
G1 X134.28 Y70.33 E14.89802
G1 X134.919 Y70.675 E14.91613
G1 X135.516 Y71.089 E14.93426
G1 X136.133 Y71.633 E14.95477
G1 X139.367 Y74.867 E15.06886
G1 X139.851 Y75.408 E15.08697
G1 X140.274 Y75.999 E15.1051
G1 X140.628 Y76.633 E15.12321
G1 X140.911 Y77.302 E15.14133
G1 X141.008 Y77.628 E15.14982
G1 X141.274 Y77.999 E15.16121
G1 X141.628 Y78.633 E15.17932
G1 X141.911 Y79.302 E15.19744
G1 X142.119 Y79.998 E15.21556
G1 X142.249 Y80.713 E15.23369
G1 X142.3 Y81.534 E15.25421
G1 X142.3 Y102.466 E15.77636
G1 X142.26 Y103.191 E15.79447
G1 X142.141 Y103.908 E15.8126
G1 X141.943 Y104.607 E15.83072
G1 X141.67 Y105.28 E15.84884
G1 X141.325 Y105.919 E15.86696
G1 X141.3 Y105.955 E15.86805
G1 X141.3 Y107.466 E15.90574
G1 X141.26 Y108.191 E15.92385
G1 X141.141 Y108.908 E15.94198
G1 X140.943 Y109.607 E15.96011
G1 X140.67 Y110.28 E15.97822
G1 X140.325 Y110.919 E15.99634
G1 X140.3 Y110.955 E15.99743
G1 X140.3 Y111.775 E16.01789
G1 X140.26 Y112.5 E16.036
G1 X140.141 Y113.217 E16.05413
G1 X139.943 Y113.916 E16.07225
G1 X139.67 Y114.589 E16.09037
G1 X139.325 Y115.228 E16.10848
G1 X138.911 Y115.825 E16.12661
G1 X138.435 Y116.373 E16.14471
G1 X137.901 Y116.866 E16.16284
G1 X137.316 Y117.296 E16.18095
G1 X136.687 Y117.66 E16.19908
G1 X136.058 Y117.937 E16.21623
G1 X136.1 Y118.617 E16.23322
G1 X136.1 Y134.383 E16.62651
G1 X136.06 Y135.108 E16.64462
G1 X135.941 Y135.825 E16.66275
G1 X135.743 Y136.524 E16.68087
G1 X135.47 Y137.197 E16.69899
G1 X135.125 Y137.836 E16.7171
G1 X134.711 Y138.433 E16.73523
