; generated by Slic3r 1.37.2-prusa3d-win64 on 2018-11-15 at 08:41:05

; 

; external perimeters extrusion width = 0.45mm
; perimeters extrusion width = 0.45mm
; infill extrusion width = 0.45mm
; solid infill extrusion width = 0.45mm
; top infill extrusion width = 0.45mm
; first layer extrusion width = 0.42mm

M107
M115 U3.1.0 ; tell printer latest fw version
M83  ; extruder relative mode
M104 S215 ; set extruder temp
M140 S55 ; set bed temp
M190 S55 ; wait for bed temp
M109 S215 ; wait for extruder temp
G28 W ; home all without mesh bed level
G80 ; mesh bed leveling
G1 Y-3.0 F1000.0 ; go outside print area
G92 E0.0
G1 X60.0 E9.0  F1000.0 ; intro line
G1 X100.0 E12.5  F1000.0 ; intro line
G92 E0.0
M900 K30 ; Filament gcode
G21 ; set units to millimeters
G90 ; use absolute coordinates
M83 ; use relative distances for extrusion
;BEFORE_LAYER_CHANGE
;0.2


G1 E-0.80000 F2100.00000
G1 Z0.200 F7200.000
;AFTER_LAYER_CHANGE
;0.2
G1 X118.488 Y92.870 F7200.000
G1 E0.80000 F2100.00000
M204 S1000
G1 F1800
G1 X118.909 Y92.208 E0.02460
G1 X121.120 Y89.987 E0.09826
G1 X121.768 Y89.537 E0.02473
G1 X122.292 Y89.338 E0.01758
G1 X122.846 Y89.250 E0.01758
G1 X127.004 Y89.246 E0.13038
G1 X127.994 Y89.431 E0.03157
G1 X128.854 Y89.963 E0.03170
G1 X131.147 Y92.275 E0.10211
G1 X131.509 Y92.864 E0.02167
G1 X131.713 Y93.528 E0.02180
G1 X131.728 Y116.380 E0.71650
G1 X131.510 Y117.134 E0.02460
G1 X131.086 Y117.799 E0.02473
G1 X128.874 Y120.019 E0.09827
G1 X128.188 Y120.485 E0.02600
G1 X127.668 Y120.672 E0.01733
G1 X127.121 Y120.751 E0.01733
G1 X122.620 Y120.728 E0.14114
G1 X121.781 Y120.470 E0.02752
G1 X121.063 Y119.958 E0.02765
G1 X118.840 Y117.709 E0.09915
G1 X118.479 Y117.110 E0.02192
G1 X118.280 Y116.435 E0.02205
G1 X118.272 Y93.620 E0.71536
G1 X118.472 Y92.928 E0.02259
G1 F5760
G1 X118.909 Y92.208 E-0.29172
G1 F5760
G1 X119.863 Y91.250 E-0.46828
G1 E-0.04000 F2100.00000
G1 X121.965 Y89.860 F7200.000
G1 E0.80000 F2100.00000
G1 F1800
G1 X122.889 Y89.626 E0.02989
G1 X127.004 Y89.623 E0.12902
G1 X127.867 Y89.787 E0.02755
G1 X128.609 Y90.250 E0.02743
G1 X130.844 Y92.500 E0.09944
G1 X131.169 Y93.027 E0.01941
G1 X131.346 Y93.616 E0.01929
G1 X131.354 Y116.330 E0.71218
G1 X131.161 Y116.990 E0.02154
G1 X130.788 Y117.566 E0.02154
G1 X128.618 Y119.742 E0.09634
G1 X128.001 Y120.156 E0.02331
G1 X127.088 Y120.375 E0.02942
G1 X122.670 Y120.354 E0.13854
G1 X121.942 Y120.128 E0.02390
G1 X121.322 Y119.684 E0.02390
G1 X119.146 Y117.488 E0.09693
G1 X118.823 Y116.955 E0.01953
G1 X118.649 Y116.353 E0.01965
G1 X118.646 Y93.670 E0.71123
G1 X118.837 Y93.014 E0.02142
G1 X119.207 Y92.439 E0.02142
G1 X121.377 Y90.264 E0.09634
G1 X121.916 Y89.894 E0.02049
G1 F5760
G1 X122.889 Y89.626 E-0.34978
G1 F5760
G1 X124.073 Y89.625 E-0.41022
G1 E-0.04000 F2100.00000
G1 X123.964 Y92.964 F7200.000
G1 E0.80000 F2100.00000
G1 F1800
G1 X126.036 Y92.964 E0.06496
G1 X126.036 Y93.964 E0.03135
G1 X127.036 Y93.964 E0.03135
G1 X127.036 Y94.964 E0.03135
G1 X128.036 Y94.964 E0.03135
G1 X128.036 Y97.036 E0.06496
G1 X127.036 Y97.036 E0.03135
G1 X127.036 Y98.036 E0.03135
G1 X126.036 Y98.036 E0.03135
G1 X126.036 Y111.964 E0.43671
G1 X127.036 Y111.964 E0.03135
G1 X127.036 Y112.964 E0.03135
G1 X128.036 Y112.964 E0.03135
G1 X128.036 Y115.036 E0.06496
G1 X127.036 Y115.036 E0.03135
G1 X127.036 Y116.036 E0.03135
G1 X126.036 Y116.036 E0.03135
G1 X126.036 Y117.036 E0.03135
G1 X123.964 Y117.036 E0.06496
G1 X123.964 Y116.036 E0.03135
G1 X122.964 Y116.036 E0.03135
G1 X122.964 Y115.036 E0.03135
G1 X121.964 Y115.036 E0.03135
G1 X121.964 Y112.964 E0.06496
G1 X122.964 Y112.964 E0.03135
G1 X122.964 Y111.964 E0.03135
G1 X123.964 Y111.964 E0.03135
G1 X123.964 Y98.036 E0.43671
G1 X122.964 Y98.036 E0.03135
G1 X122.964 Y97.036 E0.03135
G1 X121.964 Y97.036 E0.03135
G1 X121.964 Y94.964 E0.06496
G1 X122.964 Y94.964 E0.03135
G1 X122.964 Y93.964 E0.03135
G1 X123.964 Y93.964 E0.03135
G1 X123.964 Y93.024 E0.02947
G1 F5760
G1 X126.036 Y92.964 E-0.71784
G1 F5760
G1 X126.036 Y93.086 E-0.04216
G1 E-0.04000 F2100.00000
G1 X126.413 Y93.587 F7200.000
G1 E0.80000 F2100.00000
G1 F1800
G1 X127.413 Y93.587 E0.03135
G1 X127.413 Y94.587 E0.03135
G1 X128.413 Y94.587 E0.03135
G1 X128.413 Y97.413 E0.08860
G1 X127.413 Y97.413 E0.03135
G1 X127.413 Y98.413 E0.03135
G1 X126.413 Y98.413 E0.03135
G1 X126.413 Y111.587 E0.41307
G1 X127.413 Y111.587 E0.03135
G1 X127.413 Y112.587 E0.03135
G1 X128.413 Y112.587 E0.03135
G1 X128.413 Y115.413 E0.08860
G1 X127.413 Y115.413 E0.03135
G1 X127.413 Y116.413 E0.03135
G1 X126.413 Y116.413 E0.03135
G1 X126.413 Y117.413 E0.03135
G1 X123.587 Y117.413 E0.08860
G1 X123.587 Y116.413 E0.03135
G1 X122.587 Y116.413 E0.03135
G1 X122.587 Y115.413 E0.03135
G1 X121.587 Y115.413 E0.03135
G1 X121.587 Y112.587 E0.08860
G1 X122.587 Y112.587 E0.03135
G1 X122.587 Y111.587 E0.03135
G1 X123.587 Y111.587 E0.03135
G1 X123.587 Y98.413 E0.41307
G1 X122.587 Y98.413 E0.03135
G1 X122.587 Y97.413 E0.03135
G1 X121.587 Y97.413 E0.03135
G1 X121.587 Y94.587 E0.08860
G1 X122.587 Y94.587 E0.03135
G1 X122.587 Y93.587 E0.03135
G1 X123.587 Y93.587 E0.03135
G1 X123.587 Y92.587 E0.03135
G1 X126.413 Y92.587 E0.08860
G1 X126.413 Y93.527 E0.02947
G1 X126.790 Y93.210 F7200.000
G1 F1800
G1 X127.790 Y93.210 E0.03135
G1 X127.790 Y94.210 E0.03135
G1 X128.790 Y94.210 E0.03135
G1 X128.790 Y97.790 E0.11225
G1 X127.790 Y97.790 E0.03135
G1 X127.790 Y98.790 E0.03135
G1 X126.790 Y98.790 E0.03135
G1 X126.790 Y111.210 E0.38942
G1 X127.790 Y111.210 E0.03135
G1 X127.790 Y112.210 E0.03135
G1 X128.790 Y112.210 E0.03135
G1 X128.790 Y115.790 E0.11225
G1 X127.790 Y115.790 E0.03135
G1 X127.790 Y116.790 E0.03135
G1 X126.790 Y116.790 E0.03135
G1 X126.790 Y117.790 E0.03135
G1 X123.210 Y117.790 E0.11225
G1 X123.210 Y116.790 E0.03135
G1 X122.210 Y116.790 E0.03135
G1 X122.210 Y115.790 E0.03135
G1 X121.210 Y115.790 E0.03135
G1 X121.210 Y112.210 E0.11225
G1 X122.210 Y112.210 E0.03135
G1 X122.210 Y111.210 E0.03135
G1 X123.210 Y111.210 E0.03135
G1 X123.210 Y98.790 E0.38942
G1 X122.210 Y98.790 E0.03135
G1 X122.210 Y97.790 E0.03135
G1 X121.210 Y97.790 E0.03135
G1 X121.210 Y94.210 E0.11225
G1 X122.210 Y94.210 E0.03135
G1 X122.210 Y93.210 E0.03135
G1 X123.210 Y93.210 E0.03135
G1 X123.210 Y92.210 E0.03135
G1 X126.790 Y92.210 E0.11225
G1 X126.790 Y93.150 E0.02947
G1 X126.958 Y93.573 F7200.000
G1 F5760
G1 X127.790 Y93.210 E-0.34698
G1 F5760
G1 X127.790 Y94.210 E-0.34635
G1 F5760
G1 X127.982 Y94.210 E-0.06667
G1 E-0.04000 F2100.00000
G1 X125.923 Y93.845 F7200.000
G1 E0.80000 F2100.00000
G1 F1800
G1 X125.325 Y93.247 E0.02669
G1 X124.788 Y93.247 E0.01694
G1 X127.753 Y96.212 E0.13234
G1 X127.753 Y96.749 E0.01694
G1 X124.251 Y93.247 E0.15630
G1 X124.247 Y93.779 E0.01681
G1 X127.221 Y96.753 E0.13273
G1 X126.753 Y96.753 E0.01476
G1 X126.753 Y96.822 E0.00219
G1 X124.178 Y94.247 E0.11495
G1 X123.641 Y94.247 E0.01694
G1 X126.753 Y97.359 E0.13891
G1 X126.753 Y97.753 E0.01243
G1 X126.610 Y97.753 E0.00451
G1 X123.247 Y94.390 E0.15012
G1 X123.247 Y94.927 E0.01694
G1 X126.073 Y97.753 E0.12616
G1 X125.753 Y97.753 E0.01011
G1 X125.753 Y97.970 E0.00683
G1 X123.030 Y95.247 E0.12152
G1 X122.494 Y95.247 E0.01694
G1 X125.753 Y98.506 E0.14548
G1 X125.753 Y99.043 E0.01694
G1 X122.247 Y95.537 E0.15650
G1 X122.247 Y96.074 E0.01694
G1 X125.753 Y99.580 E0.15650
G1 X125.753 Y100.117 E0.01694
G1 X124.247 Y98.611 E0.06723
G1 X124.247 Y99.147 E0.01694
G1 X125.753 Y100.654 E0.06723
G1 X125.753 Y101.190 E0.01694
G1 X124.247 Y99.684 E0.06723
G1 X124.247 Y100.221 E0.01694
G1 X125.753 Y101.727 E0.06723
G1 X125.753 Y102.264 E0.01694
G1 X124.247 Y100.758 E0.06723
G1 X124.247 Y101.295 E0.01694
G1 X125.753 Y102.801 E0.06723
G1 X125.753 Y103.338 E0.01694
G1 X124.247 Y101.831 E0.06723
G1 X124.247 Y102.368 E0.01694
G1 X125.753 Y103.874 E0.06723
G1 X125.753 Y104.411 E0.01694
G1 X124.247 Y102.905 E0.06723
G1 X124.247 Y103.442 E0.01694
G1 X125.753 Y104.948 E0.06723
G1 X125.753 Y105.485 E0.01694
G1 X124.247 Y103.979 E0.06723
G1 X124.247 Y104.515 E0.01694
G1 X125.753 Y106.022 E0.06723
G1 X125.753 Y106.558 E0.01694
G1 X124.247 Y105.052 E0.06723
G1 X124.247 Y105.589 E0.01694
G1 X125.753 Y107.095 E0.06723
G1 X125.753 Y107.632 E0.01694
G1 X124.247 Y106.126 E0.06723
G1 X124.247 Y106.663 E0.01694
G1 X125.753 Y108.169 E0.06723
G1 X125.753 Y108.706 E0.01694
G1 X124.247 Y107.199 E0.06723
G1 X124.247 Y107.736 E0.01694
G1 X125.753 Y109.242 E0.06723
G1 X125.753 Y109.779 E0.01694
G1 X124.247 Y108.273 E0.06723
G1 X124.247 Y108.810 E0.01694
G1 X125.753 Y110.316 E0.06723
G1 X125.753 Y110.853 E0.01694
G1 X124.247 Y109.347 E0.06723
G1 X124.247 Y109.883 E0.01694
G1 X125.923 Y111.559 E0.07480
G1 X126.441 Y112.077 F7200.000
G1 F1800
G1 X126.923 Y112.559 E0.02151
G1 X127.441 Y113.077 F7200.000
G1 F1800
G1 X127.923 Y113.559 E0.02151
G1 X127.923 Y114.096 F7200.000
G1 F1800
G1 X124.247 Y110.420 E0.16407
G1 X124.247 Y110.957 E0.01694
G1 X127.753 Y114.463 E0.15650
G1 X127.753 Y114.753 E0.00915
G1 X127.506 Y114.753 E0.00779
G1 X124.247 Y111.494 E0.14548
G1 X124.247 Y112.031 E0.01694
G1 X126.969 Y114.753 E0.12152
G1 X126.753 Y114.753 E0.00683
G1 X126.753 Y115.073 E0.01011
G1 X123.927 Y112.247 E0.12616
G1 X123.390 Y112.247 E0.01694
G1 X126.753 Y115.610 E0.15012
G1 X126.753 Y115.753 E0.00451
G1 X126.359 Y115.753 E0.01244
G1 X123.247 Y112.641 E0.13891
G1 X123.247 Y113.178 E0.01694
G1 X125.822 Y115.753 E0.11495
G1 X125.753 Y115.753 E0.00218
G1 X125.753 Y116.221 E0.01476
G1 X122.779 Y113.247 E0.13273
G1 X122.247 Y113.251 E0.01680
G1 X125.749 Y116.753 E0.15630
G1 X125.212 Y116.753 E0.01694
G1 X122.247 Y113.788 E0.13234
G1 X122.247 Y114.325 E0.01694
G1 X122.845 Y114.923 E0.02668
G1 X123.077 Y115.155 F7200.000
G1 F1800
G1 X123.845 Y115.923 E0.03426
G1 X124.077 Y116.155 F7200.000
G1 F1800
G1 X124.845 Y116.923 E0.03426
G1 F5760
G1 X124.077 Y116.155 E-0.37592
G1 E-0.42408 F2100.00000
G1 X123.559 Y97.923 F7200.000
G1 E0.80000 F2100.00000
G1 F1800
G1 X123.077 Y97.441 E0.02151
G1 X122.559 Y96.923 F7200.000
G1 F1800
G1 X122.077 Y96.441 E0.02151
G1 F5760
G1 X122.559 Y96.923 E-0.23600
G1 E-0.56400 F2100.00000
G1 X126.155 Y94.077 F7200.000
G1 E0.80000 F2100.00000
G1 F1800
G1 X126.923 Y94.845 E0.03426
G1 X127.155 Y95.077 F7200.000
G1 F1800
G1 X127.923 Y95.845 E0.03426
M106 S252.45
;BEFORE_LAYER_CHANGE
;0.35


G1 F5760
G1 X127.155 Y95.077 E-0.37597
G1 E-0.42403 F2100.00000
G1 Z0.350 F7200.000
;AFTER_LAYER_CHANGE
;0.35
M104 S210 ; set temperature
G1 X131.713 Y93.528 F7200.000
G1 E0.80000 F2100.00000
G1 F2834
G1 X131.728 Y116.380 E0.55266
G1 X131.510 Y117.134 E0.01897
G1 X131.086 Y117.799 E0.01907
G1 X128.874 Y120.019 E0.07580
G1 X128.188 Y120.485 E0.02005
G1 X127.668 Y120.672 E0.01336
G1 X127.121 Y120.751 E0.01336
G1 X122.620 Y120.728 E0.10887
G1 X121.781 Y120.470 E0.02123
G1 X121.063 Y119.958 E0.02133
G1 X118.840 Y117.709 E0.07648
G1 X118.479 Y117.110 E0.01691
G1 X118.280 Y116.435 E0.01701
G1 X118.272 Y93.620 E0.55178
G1 X118.488 Y92.870 E0.01888
G1 X118.909 Y92.208 E0.01897
G1 X121.120 Y89.987 E0.07580
G1 X121.768 Y89.537 E0.01907
G1 X122.292 Y89.338 E0.01356
G1 X122.846 Y89.250 E0.01356
G1 X127.004 Y89.246 E0.10056
G1 X127.994 Y89.431 E0.02435
G1 X128.854 Y89.963 E0.02445
G1 X131.147 Y92.275 E0.07876
G1 X131.509 Y92.864 E0.01671
G1 X131.696 Y93.471 E0.01536
G1 F5760
G1 X131.699 Y95.665 E-0.76000
G1 E-0.04000 F2100.00000
G1 X127.939 Y95.061 F7200.000
G1 E0.80000 F2100.00000
M204 S800
G1 F2834
G1 X127.939 Y96.939 E0.04895
G1 X126.939 Y96.939 E0.02606
G1 X126.939 Y97.939 E0.02606
G1 X125.939 Y97.939 E0.02606
G1 X125.939 Y112.061 E0.36794
G1 X126.939 Y112.061 E0.02606
G1 X126.939 Y113.061 E0.02606
G1 X127.939 Y113.061 E0.02606
G1 X127.939 Y114.939 E0.04895
G1 X126.939 Y114.939 E0.02606
G1 X126.939 Y115.939 E0.02606
G1 X125.939 Y115.939 E0.02606
G1 X125.939 Y116.939 E0.02606
G1 X124.061 Y116.939 E0.04895
G1 X124.061 Y115.939 E0.02606
G1 X123.061 Y115.939 E0.02606
G1 X123.061 Y114.939 E0.02606
G1 X122.061 Y114.939 E0.02606
G1 X122.061 Y113.061 E0.04895
G1 X123.061 Y113.061 E0.02606
G1 X123.061 Y112.061 E0.02606
G1 X124.061 Y112.061 E0.02606
G1 X124.061 Y97.939 E0.36794
G1 X123.061 Y97.939 E0.02606
G1 X123.061 Y96.939 E0.02606
G1 X122.061 Y96.939 E0.02606
G1 X122.061 Y95.061 E0.04895
G1 X123.061 Y95.061 E0.02606
G1 X123.061 Y94.061 E0.02606
G1 X124.061 Y94.061 E0.02606
G1 X124.061 Y93.061 E0.02606
G1 X125.939 Y93.061 E0.04895
G1 X125.939 Y94.061 E0.02606
G1 X126.939 Y94.061 E0.02606
G1 X126.939 Y95.061 E0.02606
G1 X127.879 Y95.061 E0.02449
M204 S1000
G1 F5760
G1 X127.939 Y96.939 E-0.65105
G1 F5760
G1 X127.625 Y96.939 E-0.10895
G1 E-0.04000 F2100.00000
G1 X126.357 Y93.643 F7200.000
G1 E0.80000 F2100.00000
M204 S800
G1 F2834
G1 X127.357 Y93.643 E0.02606
G1 X127.357 Y94.643 E0.02606
G1 X128.357 Y94.643 E0.02606
G1 X128.357 Y97.357 E0.07073
G1 X127.357 Y97.357 E0.02606
G1 X127.357 Y98.357 E0.02606
G1 X126.357 Y98.357 E0.02606
G1 X126.357 Y111.643 E0.34617
G1 X127.357 Y111.643 E0.02606
G1 X127.357 Y112.643 E0.02606
G1 X128.357 Y112.643 E0.02606
G1 X128.357 Y115.357 E0.07073
G1 X127.357 Y115.357 E0.02606
G1 X127.357 Y116.357 E0.02606
G1 X126.357 Y116.357 E0.02606
G1 X126.357 Y117.357 E0.02606
G1 X123.643 Y117.357 E0.07073
G1 X123.643 Y116.357 E0.02606
G1 X122.643 Y116.357 E0.02606
G1 X122.643 Y115.357 E0.02606
G1 X121.643 Y115.357 E0.02606
G1 X121.643 Y112.643 E0.07073
G1 X122.643 Y112.643 E0.02606
G1 X122.643 Y111.643 E0.02606
G1 X123.643 Y111.643 E0.02606
G1 X123.643 Y98.357 E0.34617
G1 X122.643 Y98.357 E0.02606
G1 X122.643 Y97.357 E0.02606
G1 X121.643 Y97.357 E0.02606
G1 X121.643 Y94.643 E0.07073
G1 X122.643 Y94.643 E0.02606
G1 X122.643 Y93.643 E0.02606
G1 X123.643 Y93.643 E0.02606
G1 X123.643 Y92.643 E0.02606
G1 X126.357 Y92.643 E0.07073
G1 X126.357 Y93.583 E0.02449
M204 S1000
G1 X126.775 Y93.225 F7200.000
M204 S800
G1 F2400
G1 X127.775 Y93.225 E0.02606
G1 X127.775 Y94.225 E0.02606
G1 X128.775 Y94.225 E0.02606
G1 X128.775 Y97.775 E0.09250
G1 X127.775 Y97.775 E0.02606
G1 X127.775 Y98.775 E0.02606
G1 X126.775 Y98.775 E0.02606
G1 X126.775 Y111.225 E0.32439
G1 X127.775 Y111.225 E0.02606
G1 X127.775 Y112.225 E0.02606
G1 X128.775 Y112.225 E0.02606
G1 X128.775 Y115.775 E0.09250
G1 X127.775 Y115.775 E0.02606
G1 X127.775 Y116.775 E0.02606
G1 X126.775 Y116.775 E0.02606
G1 X126.775 Y117.775 E0.02606
G1 X123.225 Y117.775 E0.09250
G1 X123.225 Y116.775 E0.02606
G1 X122.225 Y116.775 E0.02606
G1 X122.225 Y115.775 E0.02606
G1 X121.225 Y115.775 E0.02606
G1 X121.225 Y112.225 E0.09250
G1 X122.225 Y112.225 E0.02606
G1 X122.225 Y111.225 E0.02606
G1 X123.225 Y111.225 E0.02606
G1 X123.225 Y98.775 E0.32439
G1 X122.225 Y98.775 E0.02606
G1 X122.225 Y97.775 E0.02606
G1 X121.225 Y97.775 E0.02606
G1 X121.225 Y94.225 E0.09250
G1 X122.225 Y94.225 E0.02606
G1 X122.225 Y93.225 E0.02606
G1 X123.225 Y93.225 E0.02606
G1 X123.225 Y92.225 E0.02606
G1 X126.775 Y92.225 E0.09250
G1 X126.775 Y93.165 E0.02449
M204 S1000
G1 X126.943 Y93.588 F7200.000
G1 F5760
G1 X127.775 Y93.225 E-0.34698
G1 F5760
G1 X127.775 Y94.225 E-0.34635
G1 F5760
G1 X127.967 Y94.225 E-0.06667
G1 E-0.04000 F2100.00000
G1 X122.186 Y96.049 F7200.000
G1 E0.80000 F2100.00000
M204 S2000
G1 F2834
G1 X122.861 Y95.374 E0.02540
G1 X123.374 Y95.374 E0.01365
G1 X123.374 Y94.861 E0.01365
G1 X123.861 Y94.374 E0.01833
G1 X124.374 Y94.374 E0.01365
G1 X124.374 Y93.861 E0.01365
G1 X124.861 Y93.374 E0.01833
G1 X125.464 Y93.374 E0.01605
G1 X122.374 Y96.464 E0.11628
G1 X122.374 Y96.626 E0.00430
G1 X122.816 Y96.626 E0.01175
G1 X125.626 Y93.816 E0.10574
G1 X125.626 Y94.374 E0.01485
G1 X125.671 Y94.374 E0.00120
G1 X123.374 Y96.671 E0.08643
G1 X123.374 Y97.274 E0.01605
G1 X126.274 Y94.374 E0.10913
G1 X126.626 Y94.374 E0.00936
G1 X126.626 Y94.626 E0.00670
G1 X123.626 Y97.626 E0.11289
G1 X124.229 Y97.626 E0.01605
G1 X126.626 Y95.229 E0.09019
G1 X126.626 Y95.374 E0.00386
G1 X127.084 Y95.374 E0.01219
G1 X124.374 Y98.084 E0.10198
G1 X124.374 Y98.688 E0.01605
G1 X127.626 Y95.436 E0.12236
G1 X127.626 Y96.039 E0.01605
G1 X127.039 Y96.626 E0.02209
G1 X126.626 Y96.626 E0.01099
G1 X126.626 Y97.039 E0.01099
G1 X126.039 Y97.626 E0.02209
G1 X125.626 Y97.626 E0.01099
G1 X125.626 Y98.039 E0.01099
G1 X124.374 Y99.291 E0.04711
G1 X124.374 Y99.894 E0.01605
